; Generated with MatterSlice 1.0
; filamentDiameter = 1.75
; extrusionWidth = 0.4
; firstLayerExtrusionWidth = 0.4
; layerThickness = 0.1
; firstLayerThickness = 0.3
; automatic settings before start_gcode
G21 ; set units to millimeters
M107 ; fan off
M104 T0 S208 ; start heating extruder 1
T0 ; set the active extruder to 0
; settings from start_gcode
G28 X0 Y0
G29
; automatic settings after start_gcode
M109 T0 S208 ; wait for extruder 1 to reach temperature
T0 ; set the active extruder to 0
G90 ; use absolute coordinates
G92 E0 ; reset the expected extruder position
M82 ; use absolute distance for extrusion
; Layer count: 49
; RAFT BASE
; Layer Change GCode
; LAYER:-3
G0 F4200 X20.571 Y28.191 Z0.3
; TYPE:SUPPORT
G1 F2400 E0
G1 F840 X123.287 Y28.191 E15.37357
G1 X129.429 Y48.887 E18.60468
G1 X129.429 Y89.916 E24.74551
G1 X125.866 Y109.51 E27.72625
G1 X113.568 Y121.809 E30.32943
G1 X20.571 Y121.809 E44.24835
G1 X20.571 Y28.191 E58.26021
G1 F2400 E57.26021
G0 F4200 X21.771 Y29.391
G1 F2400 E58.26021
G1 F840 X122.391 Y29.391 E73.32007
G1 X128.229 Y49.062 E76.39116
G1 X128.229 Y89.808 E82.48964
G1 X124.753 Y108.927 E85.3981
G1 X113.071 Y120.609 E87.87079
G1 X21.771 Y120.609 E101.53571
G1 X21.771 Y29.391 E115.18837
G1 F2400 E114.18837
G0 F4200 X22.971 Y30.591
G1 F2400 E115.18837
G1 F840 X121.496 Y30.591 E129.93466
G1 X127.029 Y49.236 E132.84555
G1 X127.029 Y89.7 E138.90183
G1 X123.639 Y108.343 E141.73789
G1 X112.574 Y119.409 E144.08008
G1 X22.971 Y119.409 E157.49102
G1 X22.971 Y30.591 E170.78446
G1 F2400 E169.78446
G0 F4200 X34.771 Y42.391
G1 F2400 E170.78446
G1 F840 X112.689 Y42.391 E182.4465
G1 X112.689 Y48.409 E183.34721
G1 X115.229 Y50.95 E183.88495
G1 X115.229 Y88.636 E189.52544
G1 X112.689 Y91.177 E190.06318
G1 X112.689 Y102.606 E191.77376
G1 X107.686 Y107.609 E192.83273
G1 X34.771 Y107.609 E203.74596
G1 X34.771 Y42.391 E213.50718
G1 F2400 E212.50718
G0 F4200 X47.311 Y54.954
G1 F2400 E213.50718
G1 F840 X47.311 Y58.323 E214.01142
G1 X49.851 Y60.864 E214.54916
G1 X49.851 Y79.575 E217.34964
G1 X47.311 Y82.116 E217.88738
G1 X47.311 Y90.743 E219.17859
G1 X49.096 Y92.529 E219.55652
G1 X51.141 Y92.529 E219.8626
G1 X52.398 Y91.272 E220.12866
G1 X59.609 Y91.272 E221.20793
G1 X60.866 Y92.529 E221.474
G1 X97.609 Y92.529 E226.97335
G1 X97.609 Y84.93 E228.11069
G1 X98.892 Y83.647 E228.38226
G1 X98.892 Y80.028 E228.92392
G1 X100.149 Y78.771 E229.18998
G1 X100.149 Y75.791 E229.636
G1 X102.689 Y75.791 E230.01617
G1 X102.689 Y75.624 E230.04116
G1 X100.149 Y73.084 E230.57879
G1 X100.149 Y61.069 E232.37708
G1 X98.689 Y59.608 E232.68622
G1 X98.689 Y57.471 E233.00607
G1 X59.533 Y57.471 E238.86657
G1 X58.339 Y58.665 E239.1193
G1 X51.022 Y58.665 E240.21444
G1 X47.311 Y54.954 E240.99993
G0 F4200 X48.37 Y54.4
G1 F840 X114.089 Y54.399 E250.83614
G1 F2400 E249.83614
G0 F4200 X114.089 Y55.999
G1 F2400 E250.83614
G1 F840 X49.97 Y56 E260.43287
G1 F2400 E259.43287
G0 F4200 X46.171 Y56
G1 F2400 E260.43287
G1 F840 X35.911 Y56 E261.96849
G1 F2400 E260.96849
G0 F4200 X35.911 Y57.6
G1 F2400 E261.96849
G1 F840 X46.171 Y57.6 E263.50411
G1 F2400 E262.50411
G0 F4200 X46.575 Y59.2
G1 F2400 E263.50411
G1 F840 X35.911 Y59.2 E265.10019
G1 F2400 E264.10019
G0 F4200 X35.911 Y60.8
G1 F2400 E265.10019
G1 F840 X48.174 Y60.8 E266.93561
G1 F2400 E265.93561
G0 F4200 X48.71 Y62.4
G1 F2400 E266.93561
G1 F840 X35.911 Y62.4 E268.85124
G1 F2400 E267.85124
G0 F4200 X35.911 Y64
G1 F2400 E268.85124
G1 F840 X48.71 Y64 E270.76687
G1 F2400 E269.76687
G0 F4200 X48.71 Y65.6
G1 F2400 E270.76687
G1 F840 X35.911 Y65.6 E272.68251
G1 F2400 E271.68251
G0 F4200 X35.911 Y67.2
G1 F2400 E272.68251
G1 F840 X48.71 Y67.2 E274.59814
G1 F2400 E273.59814
G0 F4200 X48.71 Y68.8
G1 F2400 E274.59814
G1 F840 X35.911 Y68.8 E276.51378
G1 F2400 E275.51378
G0 F4200 X35.911 Y70.4
G1 F2400 E276.51378
G1 F840 X48.71 Y70.4 E278.42941
G1 F2400 E277.42941
G0 F4200 X48.71 Y72
G1 F2400 E278.42941
G1 F840 X35.911 Y72 E280.34504
G1 F2400 E279.34504
G0 F4200 X35.911 Y73.6
G1 F2400 E280.34504
G1 F840 X48.71 Y73.6 E282.26068
G1 F2400 E281.26068
G0 F4200 X48.71 Y75.2
G1 F2400 E282.26068
G1 F840 X35.91 Y75.2 E284.17646
G1 F2400 E283.17646
G0 F4200 X35.91 Y76.8
G1 F2400 E284.17646
G1 F840 X48.71 Y76.8 E286.09225
G1 F2400 E285.09225
G0 F4200 X48.71 Y78.4
G1 F2400 E286.09225
G1 F840 X35.91 Y78.4 E288.00803
G1 F2400 E287.00803
G0 F4200 X35.91 Y80
G1 F2400 E288.00803
G1 F840 X47.813 Y80 E289.78956
G1 F2400 E288.78956
G0 F4200 X46.213 Y81.6
G1 F2400 E289.78956
G1 F840 X35.91 Y81.6 E291.33162
G1 F2400 E290.33162
G0 F4200 X35.91 Y83.2
G1 F2400 E291.33162
G1 F840 X46.17 Y83.2 E292.86724
G1 F2400 E291.86724
G0 F4200 X46.17 Y84.8
G1 F2400 E292.86724
G1 F840 X35.91 Y84.8 E294.40286
G1 F2400 E293.40286
G0 F4200 X35.91 Y86.4
G1 F2400 E294.40286
G1 F840 X46.17 Y86.4 E295.93848
G1 F2400 E294.93848
G0 F4200 X46.17 Y88
G1 F2400 E295.93848
G1 F840 X35.91 Y88 E297.4741
G1 F2400 E296.4741
G0 F4200 X35.91 Y89.6
G1 F2400 E297.4741
G1 F840 X46.17 Y89.6 E299.00972
G1 F2400 E298.00972
G0 F4200 X46.17 Y91.2
G1 F2400 E299.00972
G1 F840 X35.91 Y91.2 E300.54534
G1 F2400 E299.54534
G0 F4200 X35.91 Y92.8
G1 F2400 E300.54534
G1 F840 X47.753 Y92.8 E302.31789
G1 F2400 E301.31789
G0 F4200 X52.482 Y92.8
G1 F2400 E302.31789
G1 F840 X59.523 Y92.8 E303.37172
G1 F2400 E302.37172
G0 F4200 X35.91 Y94.4
G1 F2400 E303.37172
G1 F840 X111.549 Y94.4 E314.69265
G1 F2400 E313.69265
G0 F4200 X111.549 Y92.8
G1 F2400 E314.69265
G1 F840 X98.749 Y92.8 E316.60844
G1 F2400 E315.60844
G0 F4200 X98.749 Y91.2
G1 F2400 E316.60844
G1 F840 X111.549 Y91.2 E318.52422
G1 F2400 E317.52422
G0 F4200 X112.653 Y89.6
G1 F2400 E318.52422
G1 F840 X98.749 Y89.6 E320.60524
G1 F2400 E319.60524
G0 F4200 X98.749 Y88
G1 F2400 E320.60524
G1 F840 X114.089 Y88 E322.90119
G1 F2400 E321.90119
G0 F4200 X114.089 Y86.4
G1 F2400 E322.90119
G1 F840 X98.749 Y86.4 E325.19713
G1 F2400 E324.19713
G0 F4200 X99.352 Y84.8
G1 F2400 E325.19713
G1 F840 X114.089 Y84.8 E327.40283
G1 F2400 E326.40283
G0 F4200 X114.089 Y83.2
G1 F2400 E327.40283
G1 F840 X100.032 Y83.2 E329.50675
G1 F2400 E328.50675
G0 F4200 X100.032 Y81.6
G1 F2400 E329.50675
G1 F840 X114.089 Y81.6 E331.61067
G1 F2400 E330.61067
G0 F4200 X114.089 Y80
G1 F2400 E331.61067
G1 F840 X100.533 Y80 E333.6396
G1 F2400 E332.6396
G0 F4200 X101.289 Y78.4
G1 F2400 E333.6396
G1 F840 X114.089 Y78.4 E335.55539
G1 F2400 E334.55539
G0 F4200 X114.089 Y76.8
G1 F2400 E335.55539
G1 F840 X103.829 Y76.8 E337.09101
G1 F2400 E336.09101
G0 F4200 X103.829 Y75.2
G1 F2400 E337.09101
G1 F840 X114.089 Y75.2 E338.62663
G1 F2400 E337.62663
G0 F4200 X114.089 Y73.6
G1 F2400 E338.62663
G1 F840 X102.278 Y73.6 E340.39439
G1 F2400 E339.39439
G0 F4200 X101.289 Y72
G1 F2400 E340.39439
G1 F840 X114.089 Y72 E342.31017
G1 F2400 E341.31017
G0 F4200 X114.089 Y70.4
G1 F2400 E342.31017
G1 F840 X101.289 Y70.4 E344.22596
G1 F2400 E343.22596
G0 F4200 X101.289 Y68.8
G1 F2400 E344.22596
G1 F840 X114.089 Y68.8 E346.14174
G1 F2400 E345.14174
G0 F4200 X114.089 Y67.2
G1 F2400 E346.14174
G1 F840 X101.289 Y67.2 E348.05752
G1 F2400 E347.05752
G0 F4200 X101.289 Y65.6
G1 F2400 E348.05752
G1 F840 X114.089 Y65.6 E349.97331
G1 F2400 E348.97331
G0 F4200 X114.089 Y63.999
G1 F2400 E349.97331
G1 F840 X101.289 Y63.999 E351.88909
G1 F2400 E350.88909
G0 F4200 X101.289 Y62.399
G1 F2400 E351.88909
G1 F840 X114.089 Y62.399 E353.80488
G1 F2400 E352.80488
G0 F4200 X114.089 Y60.799
G1 F2400 E353.80488
G1 F840 X101.289 Y60.799 E355.72066
G1 F2400 E354.72066
G0 F4200 X99.893 Y59.199
G1 F2400 E355.72066
G1 F840 X114.089 Y59.199 E357.84538
G1 F2400 E356.84538
G0 F4200 X114.089 Y57.599
G1 F2400 E357.84538
G1 F840 X99.829 Y57.599 E359.97969
G1 F2400 E358.97969
G0 F4200 X112.267 Y49.599
G1 F2400 E359.97969
G1 F840 X35.911 Y49.6 E371.40793
G1 F2400 E370.40793
G0 F4200 X35.911 Y51.2
G1 F2400 E371.40793
G1 F840 X113.867 Y51.199 E383.07566
G1 F2400 E382.07566
G0 F4200 X114.089 Y52.799
G1 F2400 E383.07566
G1 F840 X35.911 Y52.8 E394.77661
G1 F2400 E393.77661
G0 F4200 X35.911 Y54.4
G1 F2400 E394.77661
G1 F840 X46.171 Y54.4 E396.31223
G1 F2400 E395.31223
G0 F4200 X35.911 Y48
G1 F2400 E396.31223
G1 F840 X111.549 Y47.999 E407.63301
G1 F2400 E406.63301
G0 F4200 X111.549 Y46.399
G1 F2400 E407.63301
G1 F840 X35.911 Y46.4 E418.9538
G1 F2400 E417.9538
G0 F4200 X35.911 Y44.8
G1 F2400 E418.9538
G1 F840 X111.549 Y44.799 E430.27458
G1 F2400 E429.27458
G0 F4200 X111.549 Y96
G1 F2400 E430.27458
G1 F840 X35.91 Y96 E441.59552
G1 F2400 E440.59552
G0 F4200 X35.91 Y97.6
G1 F2400 E441.59552
G1 F840 X111.549 Y97.6 E452.91645
G1 F2400 E451.91645
G0 F4200 X111.549 Y99.2
G1 F2400 E452.91645
G1 F840 X35.91 Y99.2 E464.23739
G1 F2400 E463.23739
G0 F4200 X35.91 Y100.8
G1 F2400 E464.23739
G1 F840 X111.549 Y100.8 E475.55832
G1 F2400 E474.55832
G0 F4200 X111.282 Y102.4
G1 F2400 E475.55832
G1 F840 X35.91 Y102.4 E486.8393
G1 F2400 E485.8393
G0 F4200 X35.91 Y104
G1 F2400 E486.8393
G1 F840 X109.682 Y104 E497.8808
G1 F2400 E496.8808
G0 F4200 X108.082 Y105.6
G1 F2400 E497.8808
G1 F840 X35.91 Y105.6 E508.68282
M400
M106 S255
; RAFT MIDDLE
; Layer Change GCode
; LAYER:-2
G0 F4200 X34.71 Y105.421 Z0.55
; TYPE:SUPPORT
G1 F2400 X36.957 Y107.668 E508.79842
G0 F4200 X35.543 Y107.668
G1 F2400 X34.71 Y106.835 E508.84128
G1 F2400 E507.84128
G0 F4200 X34.71 Y104.006
G1 F2400 E508.84128
G1 X38.371 Y107.668 E509.02965
G0 F4200 X39.786 Y107.668
G1 F2400 X34.71 Y102.592 E509.29079
G0 F4200 X34.71 Y101.178
G1 F2400 X41.2 Y107.668 E509.62468
G0 F4200 X42.614 Y107.668
G1 F2400 X34.71 Y99.764 E510.03132
G0 F4200 X34.71 Y98.35
G1 F2400 X44.028 Y107.668 E510.5107
G0 F4200 X45.442 Y107.668
G1 F2400 X34.71 Y96.935 E511.06285
G0 F4200 X34.71 Y95.521
G1 F2400 X46.857 Y107.668 E511.68777
G0 F4200 X48.271 Y107.668
G1 F2400 X34.71 Y94.107 E512.38544
G0 F4200 X34.71 Y92.693
G1 F2400 X49.685 Y107.668 E513.15585
G0 F4200 X51.099 Y107.668
G1 F2400 X34.71 Y91.279 E513.99901
G0 F4200 X34.71 Y89.864
G1 F2400 X52.513 Y107.668 E514.91494
G0 F4200 X53.928 Y107.668
G1 F2400 X34.71 Y88.45 E515.90364
G0 F4200 X34.71 Y87.036
G1 F2400 X55.342 Y107.668 E516.96509
G0 F4200 X56.756 Y107.668
G1 F2400 X34.71 Y85.622 E518.09928
G0 F4200 X34.71 Y84.207
G1 F2400 X58.17 Y107.668 E519.30625
G0 F4200 X59.585 Y107.668
G1 F2400 X34.71 Y82.793 E520.58598
G0 F4200 X34.71 Y81.379
G1 F2400 X60.999 Y107.668 E521.93846
G0 F4200 X62.413 Y107.668
G1 F2400 X34.71 Y79.965 E523.36369
G0 F4200 X34.71 Y78.551
G1 F2400 X63.827 Y107.668 E524.86166
G0 F4200 X65.241 Y107.668
G1 F2400 X50.041 Y92.468 E525.64365
G0 F4200 X51.286 Y92.298
G1 F2400 X66.656 Y107.668 E526.43439
G0 F4200 X68.07 Y107.668
G1 F2400 X51.992 Y91.59 E527.26154
G0 F4200 X53.027 Y91.211
G1 F2400 X69.484 Y107.668 E528.1082
G0 F4200 X70.898 Y107.668
G1 F2400 X54.441 Y91.211 E528.95486
G0 F4200 X55.855 Y91.211
G1 F2400 X72.313 Y107.669 E529.80157
G0 F4200 X73.727 Y107.669
G1 F2400 X57.27 Y91.211 E530.64825
G0 F4200 X58.684 Y91.211
G1 F2400 X75.142 Y107.669 E531.49496
G0 F4200 X76.556 Y107.669
G1 F2400 X61.355 Y92.468 E532.277
G0 F4200 X62.769 Y92.468
G1 F2400 X77.97 Y107.669 E533.05904
G0 F4200 X79.384 Y107.669
G1 F2400 X64.184 Y92.468 E533.84106
G0 F4200 X65.598 Y92.468
G1 F2400 X80.798 Y107.669 E534.62307
G0 F4200 X82.213 Y107.669
G1 F2400 X67.012 Y92.468 E535.40511
G0 F4200 X68.426 Y92.468
G1 F2400 X83.627 Y107.669 E536.18715
G0 F4200 X85.041 Y107.669
G1 F2400 X69.84 Y92.468 E536.96919
G0 F4200 X71.255 Y92.468
G1 F2400 X86.455 Y107.669 E537.75121
G0 F4200 X87.87 Y107.669
G1 F2400 X72.669 Y92.468 E538.53325
G0 F4200 X74.083 Y92.468
G1 F2400 X89.284 Y107.669 E539.31529
G0 F4200 X90.698 Y107.669
G1 F2400 X75.497 Y92.468 E540.09733
G0 F4200 X76.912 Y92.468
G1 F2400 X92.112 Y107.669 E540.87934
G0 F4200 X93.526 Y107.669
G1 F2400 X78.326 Y92.468 E541.66136
G0 F4200 X79.741 Y92.469
G1 F2400 X94.941 Y107.669 E542.44335
G0 F4200 X96.355 Y107.669
G1 F2400 X81.155 Y92.469 E543.22534
G0 F4200 X82.569 Y92.469
G1 F2400 X97.769 Y107.669 E544.00732
G0 F4200 X99.183 Y107.669
G1 F2400 X83.983 Y92.469 E544.78931
G0 F4200 X85.397 Y92.469
G1 F2400 X100.597 Y107.669 E545.5713
G0 F4200 X102.012 Y107.669
G1 F2400 X86.812 Y92.469 E546.35329
G0 F4200 X88.226 Y92.469
G1 F2400 X103.426 Y107.669 E547.13528
G0 F4200 X104.84 Y107.669
G1 F2400 X89.64 Y92.469 E547.91727
G0 F4200 X91.054 Y92.469
G1 F2400 X106.254 Y107.669 E548.69926
G0 F4200 X107.669 Y107.669
G1 F2400 X92.469 Y92.469 E549.48125
G0 F4200 X93.883 Y92.469
G1 F2400 X108.396 Y106.982 E550.22789
G0 F4200 X109.103 Y106.275
G1 F2400 X95.297 Y92.469 E550.93817
G0 F4200 X96.711 Y92.469
G1 F2400 X109.81 Y105.568 E551.61207
G0 F4200 X110.517 Y104.861
G1 F2400 X97.548 Y91.892 E552.27928
G0 F4200 X97.548 Y90.477
G1 F2400 X111.225 Y104.154 E552.98291
G0 F4200 X111.932 Y103.446
G1 F2400 X97.548 Y89.063 E553.7229
G0 F4200 X97.548 Y87.648
G1 F2400 X112.639 Y102.739 E554.49928
G0 F4200 X112.748 Y101.434
G1 F2400 X97.548 Y86.234 E555.28127
G0 F4200 X97.59 Y84.862
G1 F2400 X112.748 Y100.02 E556.06109
G0 F4200 X112.748 Y98.606
G1 F2400 X98.298 Y84.156 E556.8045
G0 F4200 X98.831 Y83.275
G1 F2400 X112.748 Y97.191 E557.52046
G0 F4200 X112.748 Y95.777
G1 F2400 X98.831 Y81.861 E558.23641
G0 F4200 X98.831 Y80.446
G1 F2400 X112.748 Y94.363 E558.9524
G0 F4200 X112.748 Y92.949
G1 F2400 X99.316 Y79.517 E559.64343
G0 F4200 X100.024 Y78.811
G1 F2400 X112.748 Y91.534 E560.29801
G0 F4200 X113.288 Y90.66
G1 F2400 X100.088 Y77.461 E560.97708
G0 F4200 X100.088 Y76.046
G1 F2400 X113.995 Y89.953 E561.69255
G0 F4200 X114.702 Y89.246
G1 F2400 X101.186 Y75.731 E562.38787
G0 F4200 X102.601 Y75.731
G1 F2400 X115.288 Y88.418 E563.04058
G0 F4200 X115.288 Y87.003
G1 F2400 X100.088 Y71.803 E563.82257
G0 F4200 X100.088 Y70.389
G1 F2400 X115.288 Y85.589 E564.60456
G0 F4200 X115.288 Y84.175
G1 F2400 X100.088 Y68.975 E565.38654
G0 F4200 X100.088 Y67.561
G1 F2400 X115.288 Y82.761 E566.16853
G0 F4200 X115.288 Y81.346
G1 F2400 X100.088 Y66.147 E566.9505
G0 F4200 X100.088 Y64.732
G1 F2400 X115.288 Y79.932 E567.73249
G0 F4200 X115.288 Y78.518
G1 F2400 X100.088 Y63.318 E568.51448
G0 F4200 X100.088 Y61.904
G1 F2400 X115.288 Y77.104 E569.29646
G0 F4200 X115.288 Y75.69
G1 F2400 X98.628 Y59.03 E570.15357
G0 F4200 X98.627 Y57.615
G1 F2400 X115.288 Y74.275 E571.01069
G0 F4200 X115.288 Y72.861
G1 F2400 X84.757 Y42.33 E572.58141
G0 F4200 X83.343 Y42.33
G1 F2400 X98.543 Y57.53 E573.3634
G0 F4200 X97.128 Y57.53
G1 F2400 X81.928 Y42.33 E574.14539
G0 F4200 X80.514 Y42.33
G1 F2400 X95.714 Y57.53 E574.92738
G0 F4200 X94.3 Y57.53
G1 F2400 X79.1 Y42.33 E575.70937
G0 F4200 X77.686 Y42.33
G1 F2400 X92.886 Y57.53 E576.49135
G0 F4200 X91.472 Y57.53
G1 F2400 X76.272 Y42.33 E577.27334
G0 F4200 X74.857 Y42.33
G1 F2400 X90.057 Y57.53 E578.05533
G0 F4200 X88.643 Y57.53
G1 F2400 X73.442 Y42.33 E578.83735
G0 F4200 X72.028 Y42.33
G1 F2400 X87.229 Y57.53 E579.61936
G0 F4200 X85.815 Y57.53
G1 F2400 X70.614 Y42.33 E580.40138
G0 F4200 X69.2 Y42.33
G1 F2400 X84.4 Y57.53 E581.18337
G0 F4200 X82.986 Y57.53
G1 F2400 X67.786 Y42.33 E581.96536
G0 F4200 X66.371 Y42.33
G1 F2400 X81.572 Y57.53 E582.74737
G0 F4200 X80.158 Y57.53
G1 F2400 X64.957 Y42.33 E583.52938
G0 F4200 X63.543 Y42.33
G1 F2400 X78.744 Y57.53 E584.3114
G0 F4200 X77.329 Y57.53
G1 F2400 X62.129 Y42.33 E585.09339
G0 F4200 X60.715 Y42.33
G1 F2400 X75.915 Y57.53 E585.87538
G0 F4200 X74.501 Y57.53
G1 F2400 X59.3 Y42.33 E586.65739
G0 F4200 X57.886 Y42.33
G1 F2400 X73.087 Y57.53 E587.43941
G0 F4200 X71.673 Y57.53
G1 F2400 X56.472 Y42.33 E588.22142
G0 F4200 X55.058 Y42.33
G1 F2400 X70.258 Y57.53 E589.00341
G0 F4200 X68.844 Y57.53
G1 F2400 X53.643 Y42.33 E589.78543
G0 F4200 X52.229 Y42.33
G1 F2400 X67.43 Y57.53 E590.56744
G0 F4200 X66.016 Y57.53
G1 F2400 X50.815 Y42.33 E591.34946
G0 F4200 X49.401 Y42.33
G1 F2400 X64.601 Y57.53 E592.13144
G0 F4200 X63.187 Y57.53
G1 F2400 X47.987 Y42.33 E592.91343
G0 F4200 X46.572 Y42.33
G1 F2400 X61.773 Y57.53 E593.69545
G0 F4200 X60.359 Y57.53
G1 F2400 X45.158 Y42.33 E594.47746
G0 F4200 X43.744 Y42.33
G1 F2400 X59.25 Y57.836 E595.27519
G0 F4200 X58.544 Y58.544
G1 F2400 X42.33 Y42.33 E596.10935
G0 F4200 X40.916 Y42.33
G1 F2400 X57.31 Y58.724 E596.95277
G0 F4200 X55.896 Y58.724
G1 F2400 X39.501 Y42.33 E597.79621
G0 F4200 X38.087 Y42.33
G1 F2400 X54.481 Y58.724 E598.63962
G0 F4200 X53.067 Y58.724
G1 F2400 X36.673 Y42.33 E599.48304
G0 F4200 X35.259 Y42.33
G1 F2400 X51.653 Y58.724 E600.32646
G1 F2400 E599.32646
G0 F4200 X49.911 Y61.224
G1 F2400 E600.32646
G1 X34.71 Y46.024 E601.10847
G0 F4200 X34.71 Y47.438
G1 F2400 X49.911 Y62.639 E601.89051
G0 F4200 X49.911 Y64.053
G1 F2400 X34.71 Y48.852 E602.67255
G0 F4200 X34.71 Y50.266
G1 F2400 X49.911 Y65.467 E603.45459
G0 F4200 X49.911 Y66.881
G1 F2400 X34.71 Y51.681 E604.23661
G0 F4200 X34.71 Y53.095
G1 F2400 X49.911 Y68.295 E605.01862
G0 F4200 X49.911 Y69.71
G1 F2400 X34.71 Y54.509 E605.80066
G0 F4200 X34.71 Y55.923
G1 F2400 X49.911 Y71.124 E606.5827
G0 F4200 X49.911 Y72.538
G1 F2400 X34.71 Y57.337 E607.36474
G0 F4200 X34.71 Y58.752
G1 F2400 X49.911 Y73.952 E608.14676
G0 F4200 X49.911 Y75.366
G1 F2400 X34.71 Y60.166 E608.92877
G0 F4200 X34.71 Y61.58
G1 F2400 X49.911 Y76.781 E609.71081
G0 F4200 X49.911 Y78.195
G1 F2400 X34.71 Y62.994 E610.49286
G0 F4200 X34.71 Y64.408
G1 F2400 X49.906 Y79.604 E611.27464
G0 F4200 X49.199 Y80.311
G1 F2400 X34.71 Y65.823 E612.02002
G0 F4200 X34.71 Y67.237
G1 F2400 X48.491 Y81.018 E612.72901
G0 F4200 X47.784 Y81.725
G1 F2400 X34.71 Y68.651 E613.40162
G0 F4200 X34.71 Y70.065
G1 F2400 X47.371 Y82.726 E614.05299
G0 F4200 X47.371 Y84.14
G1 F2400 X34.71 Y71.48 E614.70433
G0 F4200 X34.71 Y72.894
G1 F2400 X47.371 Y85.554 E615.35567
G0 F4200 X47.371 Y86.969
G1 F2400 X34.71 Y74.308 E616.00704
G0 F4200 X34.71 Y75.722
G1 F2400 X47.371 Y88.383 E616.6584
G0 F4200 X47.371 Y89.797
G1 F2400 X34.71 Y77.136 E617.30977
G1 F2400 E616.30977
G0 F4200 X47.37 Y57.269
G1 F2400 E617.30977
G1 X34.71 Y44.609 E617.96108
G0 F4200 X34.71 Y43.195
G1 F2400 X47.371 Y55.856 E618.61245
G1 F2400 E617.61245
G0 F4200 X86.171 Y42.33
G1 F2400 E618.61245
G1 X115.288 Y71.447 E620.11042
G0 F4200 X115.288 Y70.033
G1 F2400 X87.585 Y42.33 E621.53565
G0 F4200 X88.999 Y42.33
G1 F2400 X115.288 Y68.619 E622.88813
G0 F4200 X115.288 Y67.205
G1 F2400 X90.414 Y42.33 E624.16784
G0 F4200 X91.828 Y42.33
G1 F2400 X115.288 Y65.791 E625.3748
G0 F4200 X115.288 Y64.377
G1 F2400 X93.242 Y42.33 E626.50902
G0 F4200 X94.656 Y42.33
G1 F2400 X115.288 Y62.962 E627.57047
G0 F4200 X115.288 Y61.548
G1 F2400 X96.071 Y42.33 E628.55914
G0 F4200 X97.485 Y42.33
G1 F2400 X115.288 Y60.134 E629.47507
G0 F4200 X115.288 Y58.72
G1 F2400 X98.899 Y42.33 E630.31826
G0 F4200 X100.313 Y42.33
G1 F2400 X115.288 Y57.306 E631.0887
G0 F4200 X115.288 Y55.891
G1 F2400 X101.727 Y42.33 E631.78637
G0 F4200 X103.142 Y42.33
G1 F2400 X115.288 Y54.477 E632.41126
G0 F4200 X115.288 Y53.063
G1 F2400 X104.556 Y42.33 E632.96341
G0 F4200 X105.97 Y42.33
G1 F2400 X115.288 Y51.649 E633.44282
G1 F2400 E632.44282
G0 F4200 X112.748 Y47.694
G1 F2400 E633.44282
G1 X107.384 Y42.33 E633.71878
G0 F4200 X108.798 Y42.33
G1 F2400 X112.748 Y46.28 E633.92199
G0 F4200 X112.748 Y44.866
G1 F2400 X110.213 Y42.33 E634.05244
G0 F4200 X111.627 Y42.33
G1 F2400 X112.748 Y43.452 E634.11013
; RAFT SURFACE
; Layer Change GCode
; LAYER:-1
G0 F4200 X112.4 Y42.33 Z0.8
; TYPE:SUPPORT
G1 F2400 X112.4 Y102.978 E636.63158
G0 F4200 X112 Y103.378
G1 F2400 X112 Y42.33 E639.16966
G0 F4200 X111.6 Y42.33
G1 F2400 X111.6 Y103.778 E641.72438
G0 F4200 X111.2 Y104.178
G1 F2400 X111.2 Y42.33 E644.29572
G0 F4200 X110.8 Y42.33
G1 F2400 X110.8 Y104.578 E646.88369
G0 F4200 X110.4 Y104.978
G1 F2400 X110.4 Y42.33 E649.48829
G0 F4200 X110 Y42.33
G1 F2400 X110 Y105.378 E652.10952
G0 F4200 X109.6 Y105.778
G1 F2400 X109.6 Y42.33 E654.74738
G0 F4200 X109.2 Y42.33
G1 F2400 X109.2 Y106.178 E657.40187
G0 F4200 X108.8 Y106.578
G1 F2400 X108.8 Y42.33 E660.07299
G0 F4200 X108.4 Y42.33
G1 F2400 X108.4 Y106.978 E662.76075
G0 F4200 X108 Y107.378
G1 F2400 X108 Y42.33 E665.46513
G0 F4200 X107.6 Y42.33
G1 F2400 X107.6 Y107.668 E668.18157
G0 F4200 X107.2 Y107.668
G1 F2400 X107.2 Y42.33 E670.898
G0 F4200 X106.8 Y42.33
G1 F2400 X106.8 Y107.668 E673.61444
G0 F4200 X106.4 Y107.668
G1 F2400 X106.4 Y42.33 E676.33088
G0 F4200 X106 Y42.33
G1 F2400 X106 Y107.668 E679.04732
G0 F4200 X105.6 Y107.668
G1 F2400 X105.6 Y42.33 E681.76376
G0 F4200 X105.2 Y42.33
G1 F2400 X105.2 Y107.668 E684.4802
G0 F4200 X104.8 Y107.668
G1 F2400 X104.8 Y42.33 E687.19663
G0 F4200 X104.4 Y42.33
G1 F2400 X104.4 Y107.668 E689.91307
G0 F4200 X104 Y107.668
G1 F2400 X104 Y42.33 E692.62951
G0 F4200 X103.6 Y42.33
G1 F2400 X103.6 Y107.668 E695.34595
G0 F4200 X103.2 Y107.668
G1 F2400 X103.2 Y42.33 E698.06239
G0 F4200 X102.8 Y42.33
G1 F2400 X102.8 Y107.668 E700.77883
G0 F4200 X102.4 Y107.668
G1 F2400 X102.4 Y75.73 E702.10665
G0 F4200 X102.4 Y75.419
G1 F2400 X102.4 Y42.33 E703.48233
G0 F4200 X102 Y42.33
G1 F2400 X102 Y75.019 E704.84139
G0 F4200 X101.6 Y74.619
G1 F2400 X101.6 Y42.33 E706.18381
G0 F4200 X101.2 Y42.33
G1 F2400 X101.2 Y74.22 E707.50964
G0 F4200 X100.8 Y73.82
G1 F2400 X100.8 Y42.33 E708.81884
G0 F4200 X100.4 Y42.33
G1 F2400 X100.4 Y73.42 E710.11141
G1 F2400 E709.11141
G0 F4200 X100.4 Y75.73
G1 F2400 E710.11141
G1 X100.4 Y107.668 E711.43924
G0 F4200 X100 Y107.668
G1 F2400 X100 Y78.834 E712.63802
G0 F4200 X99.6 Y79.234
G1 F2400 X99.6 Y107.668 E713.82017
G0 F4200 X99.2 Y107.668
G1 F2400 X99.2 Y79.633 E714.98573
G1 F2400 E713.98573
G0 F4200 X98.8 Y83.653
G1 F2400 E714.98573
G1 X98.8 Y107.668 E715.98415
G0 F4200 X98.4 Y107.668
G1 F2400 X98.4 Y84.053 E716.96595
G0 F4200 X98 Y84.452
G1 F2400 X98 Y107.668 E717.93116
G0 F4200 X97.6 Y107.668
G1 F2400 X97.6 Y84.852 E718.87974
G1 F2400 E717.87974
G0 F4200 X97.2 Y92.468
G1 F2400 E718.87974
G1 X97.2 Y107.668 E719.51168
G0 F4200 X96.8 Y107.668
G1 F2400 X96.8 Y92.468 E720.14363
G0 F4200 X96.4 Y92.468
G1 F2400 X96.4 Y107.668 E720.77557
G0 F4200 X96 Y107.668
G1 F2400 X96 Y92.468 E721.40751
G0 F4200 X95.6 Y92.468
G1 F2400 X95.6 Y107.668 E722.03945
G0 F4200 X95.2 Y107.668
G1 F2400 X95.2 Y92.468 E722.6714
G0 F4200 X94.8 Y92.468
G1 F2400 X94.8 Y107.668 E723.30334
G0 F4200 X94.4 Y107.668
G1 F2400 X94.4 Y92.468 E723.93528
G0 F4200 X94 Y92.468
G1 F2400 X94 Y107.668 E724.56722
G0 F4200 X93.6 Y107.668
G1 F2400 X93.6 Y92.468 E725.19917
G0 F4200 X93.2 Y92.468
G1 F2400 X93.2 Y107.668 E725.83111
G0 F4200 X92.8 Y107.668
G1 F2400 X92.8 Y92.468 E726.46305
G0 F4200 X92.4 Y92.468
G1 F2400 X92.4 Y107.668 E727.09499
G0 F4200 X92 Y107.668
G1 F2400 X92 Y92.468 E727.72694
G0 F4200 X91.6 Y92.468
G1 F2400 X91.6 Y107.668 E728.35888
G0 F4200 X91.2 Y107.668
G1 F2400 X91.2 Y92.468 E728.99082
G0 F4200 X90.8 Y92.468
G1 F2400 X90.8 Y107.668 E729.62276
G0 F4200 X90.4 Y107.668
G1 F2400 X90.4 Y92.468 E730.25471
G0 F4200 X90 Y92.468
G1 F2400 X90 Y107.668 E730.88665
G0 F4200 X89.6 Y107.668
G1 F2400 X89.6 Y92.468 E731.51859
G0 F4200 X89.2 Y92.468
G1 F2400 X89.2 Y107.668 E732.15053
G0 F4200 X88.8 Y107.668
G1 F2400 X88.8 Y92.468 E732.78248
G0 F4200 X88.4 Y92.468
G1 F2400 X88.4 Y107.668 E733.41442
G0 F4200 X88 Y107.668
G1 F2400 X88 Y92.468 E734.04636
G0 F4200 X87.6 Y92.468
G1 F2400 X87.6 Y107.668 E734.6783
G0 F4200 X87.2 Y107.668
G1 F2400 X87.2 Y92.468 E735.31025
G0 F4200 X86.8 Y92.468
G1 F2400 X86.8 Y107.668 E735.94219
G0 F4200 X86.4 Y107.668
G1 F2400 X86.4 Y92.468 E736.57413
G0 F4200 X86 Y92.468
G1 F2400 X86 Y107.668 E737.20607
G0 F4200 X85.6 Y107.668
G1 F2400 X85.6 Y92.468 E737.83802
G0 F4200 X85.2 Y92.468
G1 F2400 X85.2 Y107.668 E738.46996
G0 F4200 X84.8 Y107.668
G1 F2400 X84.8 Y92.468 E739.1019
G0 F4200 X84.4 Y92.468
G1 F2400 X84.4 Y107.668 E739.73384
G0 F4200 X84 Y107.668
G1 F2400 X84 Y92.468 E740.36579
G0 F4200 X83.6 Y92.468
G1 F2400 X83.6 Y107.668 E740.99773
G0 F4200 X83.2 Y107.668
G1 F2400 X83.2 Y92.468 E741.62967
G0 F4200 X82.8 Y92.468
G1 F2400 X82.8 Y107.668 E742.26162
G0 F4200 X82.4 Y107.668
G1 F2400 X82.4 Y92.468 E742.89356
G0 F4200 X82 Y92.468
G1 F2400 X82 Y107.668 E743.5255
G0 F4200 X81.6 Y107.668
G1 F2400 X81.6 Y92.468 E744.15744
G0 F4200 X81.2 Y92.468
G1 F2400 X81.2 Y107.668 E744.78939
G0 F4200 X80.8 Y107.668
G1 F2400 X80.8 Y92.468 E745.42133
G0 F4200 X80.4 Y92.468
G1 F2400 X80.4 Y107.668 E746.05327
G0 F4200 X80 Y107.668
G1 F2400 X80 Y92.468 E746.68521
G0 F4200 X79.6 Y92.468
G1 F2400 X79.6 Y107.668 E747.31716
G0 F4200 X79.2 Y107.668
G1 F2400 X79.2 Y92.468 E747.9491
G0 F4200 X78.8 Y92.468
G1 F2400 X78.8 Y107.668 E748.58104
G0 F4200 X78.4 Y107.668
G1 F2400 X78.4 Y92.468 E749.21298
G0 F4200 X78 Y92.468
G1 F2400 X78 Y107.668 E749.84493
G0 F4200 X77.6 Y107.668
G1 F2400 X77.6 Y92.468 E750.47687
G0 F4200 X77.2 Y92.468
G1 F2400 X77.2 Y107.668 E751.10881
G0 F4200 X76.8 Y107.668
G1 F2400 X76.8 Y92.468 E751.74075
G0 F4200 X76.4 Y92.468
G1 F2400 X76.4 Y107.668 E752.3727
G0 F4200 X76 Y107.668
G1 F2400 X76 Y92.468 E753.00464
G0 F4200 X75.6 Y92.468
G1 F2400 X75.6 Y107.668 E753.63658
G0 F4200 X75.2 Y107.668
G1 F2400 X75.2 Y92.468 E754.26852
G0 F4200 X74.8 Y92.468
G1 F2400 X74.8 Y107.668 E754.90047
G0 F4200 X74.4 Y107.668
G1 F2400 X74.4 Y92.468 E755.53241
G0 F4200 X74 Y92.468
G1 F2400 X74 Y107.668 E756.16435
G0 F4200 X73.6 Y107.668
G1 F2400 X73.6 Y92.468 E756.79629
G0 F4200 X73.2 Y92.468
G1 F2400 X73.2 Y107.668 E757.42824
G0 F4200 X72.8 Y107.668
G1 F2400 X72.8 Y92.468 E758.06018
G0 F4200 X72.4 Y92.468
G1 F2400 X72.4 Y107.668 E758.69212
G0 F4200 X72 Y107.668
G1 F2400 X72 Y92.468 E759.32406
G0 F4200 X71.6 Y92.468
G1 F2400 X71.6 Y107.668 E759.95601
G0 F4200 X71.2 Y107.668
G1 F2400 X71.2 Y92.468 E760.58795
G0 F4200 X70.8 Y92.468
G1 F2400 X70.8 Y107.668 E761.21989
G0 F4200 X70.4 Y107.668
G1 F2400 X70.4 Y92.468 E761.85183
G0 F4200 X70 Y92.468
G1 F2400 X70 Y107.668 E762.48378
G0 F4200 X69.6 Y107.668
G1 F2400 X69.6 Y92.468 E763.11572
G0 F4200 X69.2 Y92.468
G1 F2400 X69.2 Y107.668 E763.74766
G0 F4200 X68.8 Y107.668
G1 F2400 X68.8 Y92.468 E764.3796
G0 F4200 X68.4 Y92.468
G1 F2400 X68.4 Y107.668 E765.01155
G0 F4200 X68 Y107.668
G1 F2400 X68 Y92.468 E765.64349
G0 F4200 X67.6 Y92.468
G1 F2400 X67.6 Y107.668 E766.27543
G0 F4200 X67.2 Y107.668
G1 F2400 X67.2 Y92.468 E766.90738
G0 F4200 X66.8 Y92.468
G1 F2400 X66.8 Y107.668 E767.53932
G0 F4200 X66.4 Y107.668
G1 F2400 X66.4 Y92.468 E768.17126
G0 F4200 X66 Y92.468
G1 F2400 X66 Y107.668 E768.8032
G0 F4200 X65.6 Y107.668
G1 F2400 X65.6 Y92.468 E769.43515
G0 F4200 X65.2 Y92.468
G1 F2400 X65.2 Y107.668 E770.06709
G0 F4200 X64.8 Y107.668
G1 F2400 X64.8 Y92.468 E770.69903
G0 F4200 X64.4 Y92.468
G1 F2400 X64.4 Y107.668 E771.33097
G0 F4200 X64 Y107.668
G1 F2400 X64 Y92.468 E771.96292
G0 F4200 X63.6 Y92.468
G1 F2400 X63.6 Y107.668 E772.59486
G0 F4200 X63.2 Y107.668
G1 F2400 X63.2 Y92.468 E773.2268
G0 F4200 X62.8 Y92.468
G1 F2400 X62.8 Y107.668 E773.85874
G0 F4200 X62.4 Y107.668
G1 F2400 X62.4 Y92.468 E774.49069
G0 F4200 X62 Y92.468
G1 F2400 X62 Y107.668 E775.12263
G0 F4200 X61.6 Y107.668
G1 F2400 X61.6 Y92.468 E775.75457
G0 F4200 X61.2 Y92.468
G1 F2400 X61.2 Y107.668 E776.38651
G0 F4200 X60.8 Y107.668
G1 F2400 X60.8 Y92.379 E777.02216
G0 F4200 X60.4 Y91.979
G1 F2400 X60.4 Y107.668 E777.67443
G0 F4200 X60 Y107.668
G1 F2400 X60 Y91.578 E778.34337
G0 F4200 X59.6 Y91.211
G1 F2400 X59.6 Y107.668 E779.02758
G0 F4200 X59.2 Y107.669
G1 F2400 X59.2 Y91.212 E779.71178
G0 F4200 X58.8 Y91.212
G1 F2400 X58.8 Y107.669 E780.39598
G0 F4200 X58.4 Y107.669
G1 F2400 X58.4 Y91.212 E781.08018
G0 F4200 X58 Y91.212
G1 F2400 X58 Y107.669 E781.76439
G0 F4200 X57.6 Y107.669
G1 F2400 X57.6 Y91.212 E782.44859
G0 F4200 X57.2 Y91.212
G1 F2400 X57.2 Y107.669 E783.13279
G0 F4200 X56.8 Y107.669
G1 F2400 X56.8 Y91.212 E783.81699
G0 F4200 X56.4 Y91.212
G1 F2400 X56.4 Y107.669 E784.5012
G0 F4200 X56 Y107.669
G1 F2400 X56 Y91.212 E785.1854
G0 F4200 X55.6 Y91.212
G1 F2400 X55.6 Y107.669 E785.8696
G0 F4200 X55.2 Y107.669
G1 F2400 X55.2 Y91.212 E786.5538
G0 F4200 X54.8 Y91.212
G1 F2400 X54.8 Y107.669 E787.23801
G0 F4200 X54.4 Y107.669
G1 F2400 X54.4 Y91.212 E787.92221
G0 F4200 X54 Y91.212
G1 F2400 X54 Y107.669 E788.60641
G0 F4200 X53.6 Y107.669
G1 F2400 X53.6 Y91.212 E789.29061
G0 F4200 X53.2 Y91.212
G1 F2400 X53.2 Y107.669 E789.97482
G0 F4200 X52.8 Y107.669
G1 F2400 X52.8 Y91.212 E790.65902
G0 F4200 X52.4 Y91.212
G1 F2400 X52.4 Y107.669 E791.34322
G0 F4200 X52 Y107.669
G1 F2400 X52 Y91.584 E792.01196
G0 F4200 X51.6 Y91.985
G1 F2400 X51.6 Y107.669 E792.66402
G0 F4200 X51.2 Y107.669
G1 F2400 X51.2 Y92.385 E793.29946
G0 F4200 X50.8 Y92.469
G1 F2400 X50.8 Y107.669 E793.9314
G0 F4200 X50.4 Y107.669
G1 F2400 X50.4 Y92.469 E794.56334
G0 F4200 X50 Y92.469
G1 F2400 X50 Y107.669 E795.19529
G0 F4200 X49.6 Y107.669
G1 F2400 X49.6 Y92.469 E795.82723
G0 F4200 X49.2 Y92.469
G1 F2400 X49.2 Y107.669 E796.45917
G0 F4200 X48.8 Y107.669
G1 F2400 X48.8 Y92.15 E797.10438
G0 F4200 X48.4 Y91.75
G1 F2400 X48.4 Y107.669 E797.76621
G0 F4200 X48 Y107.669
G1 F2400 X48 Y91.349 E798.44472
G0 F4200 X47.6 Y90.949
G1 F2400 X47.6 Y107.669 E799.13986
G0 F4200 X47.2 Y107.669
G1 F2400 X47.2 Y42.33 E801.85634
G0 F4200 X47.6 Y42.33
G1 F2400 X47.6 Y55.327 E802.39669
G0 F4200 X48 Y55.727
G1 F2400 X48 Y42.33 E802.95367
G0 F4200 X48.4 Y42.33
G1 F2400 X48.4 Y56.127 E803.52728
G0 F4200 X48.8 Y56.527
G1 F2400 X48.8 Y42.33 E804.11753
G0 F4200 X49.2 Y42.33
G1 F2400 X49.2 Y56.928 E804.72444
G0 F4200 X49.6 Y57.328
G1 F2400 X49.6 Y42.33 E805.34798
G0 F4200 X50 Y42.33
G1 F2400 X50 Y57.728 E805.98816
G0 F4200 X50.4 Y58.128
G1 F2400 X50.4 Y42.33 E806.64496
G0 F4200 X50.8 Y42.33
G1 F2400 X50.8 Y58.528 E807.3184
G0 F4200 X51.2 Y58.724
G1 F2400 X51.2 Y42.33 E807.99998
G0 F4200 X51.6 Y42.33
G1 F2400 X51.6 Y58.724 E808.68156
G0 F4200 X52 Y58.724
G1 F2400 X52 Y42.33 E809.36315
G0 F4200 X52.4 Y42.33
G1 F2400 X52.4 Y58.724 E810.04473
G0 F4200 X52.8 Y58.724
G1 F2400 X52.8 Y42.33 E810.72631
G0 F4200 X53.2 Y42.33
G1 F2400 X53.2 Y58.724 E811.4079
G0 F4200 X53.6 Y58.724
G1 F2400 X53.6 Y42.33 E812.08948
G0 F4200 X54 Y42.33
G1 F2400 X54 Y58.724 E812.77106
G0 F4200 X54.4 Y58.724
G1 F2400 X54.4 Y42.33 E813.45265
G0 F4200 X54.8 Y42.33
G1 F2400 X54.8 Y58.724 E814.13423
G0 F4200 X55.2 Y58.724
G1 F2400 X55.2 Y42.33 E814.81581
G0 F4200 X55.6 Y42.33
G1 F2400 X55.6 Y58.724 E815.4974
G0 F4200 X56 Y58.724
G1 F2400 X56 Y42.33 E816.17898
G0 F4200 X56.4 Y42.33
G1 F2400 X56.4 Y58.724 E816.86056
G0 F4200 X56.8 Y58.724
G1 F2400 X56.8 Y42.33 E817.54215
G0 F4200 X57.2 Y42.33
G1 F2400 X57.2 Y58.724 E818.22373
G0 F4200 X57.6 Y58.724
G1 F2400 X57.6 Y42.33 E818.90531
G0 F4200 X58 Y42.33
G1 F2400 X58 Y58.724 E819.5869
G0 F4200 X58.4 Y58.687
G1 F2400 X58.4 Y42.33 E820.26694
G0 F4200 X58.8 Y42.33
G1 F2400 X58.8 Y58.287 E820.93036
G0 F4200 X59.2 Y57.886
G1 F2400 X59.2 Y42.33 E821.5771
G0 F4200 X59.6 Y42.33
G1 F2400 X59.6 Y57.53 E822.20904
G0 F4200 X60 Y57.53
G1 F2400 X60 Y42.33 E822.84099
G0 F4200 X60.4 Y42.33
G1 F2400 X60.4 Y57.53 E823.47293
G0 F4200 X60.8 Y57.53
G1 F2400 X60.8 Y42.33 E824.10487
G0 F4200 X61.2 Y42.33
G1 F2400 X61.2 Y57.53 E824.73681
G0 F4200 X61.6 Y57.53
G1 F2400 X61.6 Y42.33 E825.36876
G0 F4200 X62 Y42.33
G1 F2400 X62 Y57.53 E826.0007
G0 F4200 X62.4 Y57.53
G1 F2400 X62.4 Y42.33 E826.63264
G0 F4200 X62.8 Y42.33
G1 F2400 X62.8 Y57.53 E827.26458
G0 F4200 X63.2 Y57.53
G1 F2400 X63.2 Y42.33 E827.89653
G0 F4200 X63.6 Y42.33
G1 F2400 X63.6 Y57.53 E828.52847
G0 F4200 X64 Y57.53
G1 F2400 X64 Y42.33 E829.16041
G0 F4200 X64.4 Y42.33
G1 F2400 X64.4 Y57.53 E829.79235
G0 F4200 X64.8 Y57.53
G1 F2400 X64.8 Y42.33 E830.4243
G0 F4200 X65.2 Y42.33
G1 F2400 X65.2 Y57.53 E831.05624
G0 F4200 X65.6 Y57.53
G1 F2400 X65.6 Y42.33 E831.68818
G0 F4200 X66 Y42.33
G1 F2400 X66 Y57.53 E832.32012
G0 F4200 X66.4 Y57.53
G1 F2400 X66.4 Y42.33 E832.95207
G0 F4200 X66.8 Y42.33
G1 F2400 X66.8 Y57.53 E833.58401
G0 F4200 X67.2 Y57.53
G1 F2400 X67.2 Y42.33 E834.21595
G0 F4200 X67.6 Y42.33
G1 F2400 X67.6 Y57.53 E834.84789
G0 F4200 X68 Y57.53
G1 F2400 X68 Y42.33 E835.47984
G0 F4200 X68.4 Y42.33
G1 F2400 X68.4 Y57.53 E836.11178
G0 F4200 X68.8 Y57.53
G1 F2400 X68.8 Y42.33 E836.74372
G0 F4200 X69.2 Y42.33
G1 F2400 X69.2 Y57.53 E837.37566
G0 F4200 X69.6 Y57.53
G1 F2400 X69.6 Y42.33 E838.00761
G0 F4200 X70 Y42.33
G1 F2400 X70 Y57.53 E838.63955
G0 F4200 X70.4 Y57.53
G1 F2400 X70.4 Y42.33 E839.27149
G0 F4200 X70.8 Y42.33
G1 F2400 X70.8 Y57.53 E839.90344
G0 F4200 X71.2 Y57.53
G1 F2400 X71.2 Y42.33 E840.53538
G0 F4200 X71.6 Y42.33
G1 F2400 X71.6 Y57.53 E841.16732
G0 F4200 X72 Y57.53
G1 F2400 X72 Y42.33 E841.79926
G0 F4200 X72.4 Y42.33
G1 F2400 X72.4 Y57.53 E842.43121
G0 F4200 X72.8 Y57.53
G1 F2400 X72.8 Y42.33 E843.06315
G0 F4200 X73.2 Y42.33
G1 F2400 X73.2 Y57.53 E843.69509
G0 F4200 X73.6 Y57.53
G1 F2400 X73.6 Y42.33 E844.32703
G0 F4200 X74 Y42.33
G1 F2400 X74 Y57.53 E844.95898
G0 F4200 X74.4 Y57.53
G1 F2400 X74.4 Y42.33 E845.59092
G0 F4200 X74.8 Y42.33
G1 F2400 X74.8 Y57.53 E846.22286
G0 F4200 X75.2 Y57.53
G1 F2400 X75.2 Y42.33 E846.8548
G0 F4200 X75.6 Y42.33
G1 F2400 X75.6 Y57.53 E847.48675
G0 F4200 X76 Y57.53
G1 F2400 X76 Y42.33 E848.11869
G0 F4200 X76.4 Y42.33
G1 F2400 X76.4 Y57.53 E848.75063
G0 F4200 X76.8 Y57.53
G1 F2400 X76.8 Y42.33 E849.38257
G0 F4200 X77.2 Y42.33
G1 F2400 X77.2 Y57.53 E850.01452
G0 F4200 X77.6 Y57.53
G1 F2400 X77.6 Y42.33 E850.64646
G0 F4200 X78 Y42.33
G1 F2400 X78 Y57.53 E851.2784
G0 F4200 X78.4 Y57.53
G1 F2400 X78.4 Y42.33 E851.91034
G0 F4200 X78.8 Y42.33
G1 F2400 X78.8 Y57.53 E852.54229
G0 F4200 X79.2 Y57.53
G1 F2400 X79.2 Y42.33 E853.17423
G0 F4200 X79.6 Y42.33
G1 F2400 X79.6 Y57.53 E853.80617
G0 F4200 X80 Y57.53
G1 F2400 X80 Y42.33 E854.43811
G0 F4200 X80.4 Y42.33
G1 F2400 X80.4 Y57.53 E855.07006
G0 F4200 X80.8 Y57.53
G1 F2400 X80.8 Y42.33 E855.702
G0 F4200 X81.2 Y42.33
G1 F2400 X81.2 Y57.53 E856.33394
G0 F4200 X81.6 Y57.53
G1 F2400 X81.6 Y42.33 E856.96588
G0 F4200 X82 Y42.33
G1 F2400 X82 Y57.53 E857.59783
G0 F4200 X82.4 Y57.53
G1 F2400 X82.4 Y42.33 E858.22977
G0 F4200 X82.8 Y42.33
G1 F2400 X82.8 Y57.53 E858.86171
G0 F4200 X83.2 Y57.53
G1 F2400 X83.2 Y42.33 E859.49365
G0 F4200 X83.6 Y42.33
G1 F2400 X83.6 Y57.53 E860.1256
G0 F4200 X84 Y57.53
G1 F2400 X84 Y42.33 E860.75754
G0 F4200 X84.4 Y42.33
G1 F2400 X84.4 Y57.53 E861.38948
G0 F4200 X84.8 Y57.53
G1 F2400 X84.8 Y42.33 E862.02142
G0 F4200 X85.2 Y42.33
G1 F2400 X85.2 Y57.53 E862.65337
G0 F4200 X85.6 Y57.53
G1 F2400 X85.6 Y42.33 E863.28531
G0 F4200 X86 Y42.33
G1 F2400 X86 Y57.53 E863.91725
G0 F4200 X86.4 Y57.53
G1 F2400 X86.4 Y42.33 E864.5492
G0 F4200 X86.8 Y42.33
G1 F2400 X86.8 Y57.53 E865.18114
G0 F4200 X87.2 Y57.53
G1 F2400 X87.2 Y42.33 E865.81308
G0 F4200 X87.6 Y42.33
G1 F2400 X87.6 Y57.53 E866.44502
G0 F4200 X88 Y57.53
G1 F2400 X88 Y42.33 E867.07697
G0 F4200 X88.4 Y42.33
G1 F2400 X88.4 Y57.53 E867.70891
G0 F4200 X88.8 Y57.53
G1 F2400 X88.8 Y42.33 E868.34085
G0 F4200 X89.2 Y42.33
G1 F2400 X89.2 Y57.53 E868.97279
G0 F4200 X89.6 Y57.53
G1 F2400 X89.6 Y42.33 E869.60474
G0 F4200 X90 Y42.33
G1 F2400 X90 Y57.53 E870.23668
G0 F4200 X90.4 Y57.53
G1 F2400 X90.4 Y42.33 E870.86862
G0 F4200 X90.8 Y42.33
G1 F2400 X90.8 Y57.53 E871.50056
G0 F4200 X91.2 Y57.53
G1 F2400 X91.2 Y42.33 E872.13251
G0 F4200 X91.6 Y42.33
G1 F2400 X91.6 Y57.53 E872.76445
G0 F4200 X92 Y57.53
G1 F2400 X92 Y42.33 E873.39639
G0 F4200 X92.4 Y42.33
G1 F2400 X92.4 Y57.53 E874.02833
G0 F4200 X92.8 Y57.53
G1 F2400 X92.8 Y42.33 E874.66028
G0 F4200 X93.2 Y42.33
G1 F2400 X93.2 Y57.53 E875.29222
G0 F4200 X93.6 Y57.53
G1 F2400 X93.6 Y42.33 E875.92416
G0 F4200 X94 Y42.33
G1 F2400 X94 Y57.53 E876.5561
G0 F4200 X94.4 Y57.53
G1 F2400 X94.4 Y42.33 E877.18805
G0 F4200 X94.8 Y42.33
G1 F2400 X94.8 Y57.53 E877.81999
G0 F4200 X95.2 Y57.53
G1 F2400 X95.2 Y42.33 E878.45193
G0 F4200 X95.6 Y42.33
G1 F2400 X95.6 Y57.53 E879.08387
G0 F4200 X96 Y57.53
G1 F2400 X96 Y42.33 E879.71582
G0 F4200 X96.4 Y42.33
G1 F2400 X96.4 Y57.53 E880.34776
G0 F4200 X96.8 Y57.53
G1 F2400 X96.8 Y42.33 E880.9797
G0 F4200 X97.2 Y42.33
G1 F2400 X97.2 Y57.53 E881.61164
G0 F4200 X97.6 Y57.53
G1 F2400 X97.6 Y42.33 E882.24359
G0 F4200 X98 Y42.33
G1 F2400 X98 Y57.53 E882.87553
G0 F4200 X98.4 Y57.53
G1 F2400 X98.4 Y42.33 E883.50747
G0 F4200 X98.8 Y42.33
G1 F2400 X98.8 Y59.804 E884.23396
G0 F4200 X99.2 Y60.204
G1 F2400 X99.2 Y42.33 E884.97707
G0 F4200 X99.6 Y42.33
G1 F2400 X99.6 Y60.604 E885.73682
G0 F4200 X100 Y61.004
G1 F2400 X100 Y42.33 E886.51319
G1 F2400 E885.51319
G0 F4200 X112.8 Y48.435
G1 F2400 E886.51319
G1 X112.8 Y91.148 E888.28899
G0 F4200 X113.2 Y90.748
G1 F2400 X113.2 Y48.835 E890.03153
G0 F4200 X113.6 Y49.235
G1 F2400 X113.6 Y90.348 E891.74081
G0 F4200 X114 Y89.948
G1 F2400 X114 Y49.635 E893.41683
G0 F4200 X114.4 Y50.035
G1 F2400 X114.4 Y89.548 E895.05959
G0 F4200 X114.8 Y89.148
G1 F2400 X114.8 Y50.435 E896.66909
G0 F4200 X115.2 Y50.835
G1 F2400 X115.2 Y88.748 E898.24533
G1 F2400 E897.24533
G0 F4200 X102 Y75.73
G1 F2400 E898.24533
G1 X102 Y107.668 E899.57316
G0 F4200 X101.6 Y107.668
G1 F2400 X101.6 Y75.73 E900.90098
G0 F4200 X101.2 Y75.73
G1 F2400 X101.2 Y107.668 E902.22881
G0 F4200 X100.8 Y107.668
G1 F2400 X100.8 Y75.73 E903.55664
G1 F2400 E902.55664
G0 F4200 X49.6 Y79.91
G1 F2400 E903.55664
G1 X49.6 Y60.528 E904.36245
G0 F4200 X49.2 Y60.128
G1 F2400 X49.2 Y80.31 E905.20152
G0 F4200 X48.8 Y80.71
G1 F2400 X48.8 Y59.728 E906.07385
G0 F4200 X48.4 Y59.328
G1 F2400 X48.4 Y81.11 E906.97944
G0 F4200 X48 Y81.51
G1 F2400 X48 Y58.928 E907.91829
G0 F4200 X47.6 Y58.528
G1 F2400 X47.6 Y81.91 E908.8904
G1 F2400 E907.8904
G0 F4200 X46.8 Y107.669
G1 F2400 E908.8904
G1 X46.8 Y42.33 E911.60688
G0 F4200 X46.4 Y42.33
G1 F2400 X46.4 Y107.669 E914.32336
G0 F4200 X46 Y107.669
G1 F2400 X46 Y42.33 E917.03984
G0 F4200 X45.6 Y42.33
G1 F2400 X45.6 Y107.669 E919.75632
G0 F4200 X45.2 Y107.669
G1 F2400 X45.2 Y42.33 E922.4728
G0 F4200 X44.8 Y42.33
G1 F2400 X44.8 Y107.669 E925.18928
G0 F4200 X44.4 Y107.669
G1 F2400 X44.4 Y42.33 E927.90576
G0 F4200 X44 Y42.33
G1 F2400 X44 Y107.669 E930.62224
G0 F4200 X43.6 Y107.669
G1 F2400 X43.6 Y42.33 E933.33872
G0 F4200 X43.2 Y42.33
G1 F2400 X43.2 Y107.669 E936.0552
G0 F4200 X42.8 Y107.669
G1 F2400 X42.8 Y42.33 E938.77168
G0 F4200 X42.4 Y42.33
G1 F2400 X42.4 Y107.669 E941.48816
G0 F4200 X42 Y107.669
G1 F2400 X42 Y42.33 E944.20464
G0 F4200 X41.6 Y42.33
G1 F2400 X41.6 Y107.669 E946.92112
G0 F4200 X41.2 Y107.669
G1 F2400 X41.2 Y42.33 E949.6376
G0 F4200 X40.8 Y42.33
G1 F2400 X40.8 Y107.669 E952.35408
G0 F4200 X40.4 Y107.669
G1 F2400 X40.4 Y42.33 E955.07056
G0 F4200 X40 Y42.33
G1 F2400 X40 Y107.669 E957.78704
G0 F4200 X39.6 Y107.669
G1 F2400 X39.6 Y42.33 E960.50352
G0 F4200 X39.2 Y42.33
G1 F2400 X39.2 Y107.669 E963.22
G0 F4200 X38.8 Y107.669
G1 F2400 X38.8 Y42.33 E965.93648
G0 F4200 X38.4 Y42.33
G1 F2400 X38.4 Y107.669 E968.65296
G0 F4200 X38 Y107.669
G1 F2400 X38 Y42.33 E971.36944
G0 F4200 X37.6 Y42.33
G1 F2400 X37.6 Y107.669 E974.08592
G0 F4200 X37.2 Y107.669
G1 F2400 X37.2 Y42.33 E976.8024
G0 F4200 X36.8 Y42.33
G1 F2400 X36.8 Y107.669 E979.51888
G0 F4200 X36.4 Y107.669
G1 F2400 X36.4 Y42.33 E982.23536
G0 F4200 X36 Y42.33
G1 F2400 X36 Y107.669 E984.95184
G0 F4200 X35.6 Y107.669
G1 F2400 X35.6 Y42.33 E987.66832
G0 F4200 X35.2 Y42.33
G1 F2400 X35.2 Y107.669 E990.3848
G0 F4200 X34.8 Y107.669
G1 F2400 X34.8 Y42.33 E993.10128
; RAFT SURFACE
; Layer Change GCode
; LAYER:-1
G0 F4200 X35.168 Y42.33 Z1.05
; TYPE:SUPPORT
G1 F2400 X34.71 Y42.788 E993.12821
G0 F4200 X34.71 Y43.354
G1 F2400 X35.734 Y42.33 E993.18842
G0 F4200 X36.3 Y42.33
G1 F2400 X34.71 Y43.919 E993.28187
G0 F4200 X34.71 Y44.485
G1 F2400 X36.865 Y42.33 E993.40858
G0 F4200 X37.431 Y42.33
G1 F2400 X34.71 Y45.051 E993.56856
G0 F4200 X34.71 Y45.616
G1 F2400 X37.997 Y42.33 E993.7618
G0 F4200 X38.562 Y42.33
G1 F2400 X34.71 Y46.182 E993.98828
G0 F4200 X34.71 Y46.748
G1 F2400 X39.128 Y42.33 E994.24804
G0 F4200 X39.694 Y42.33
G1 F2400 X34.71 Y47.313 E994.54105
G0 F4200 X34.71 Y47.879
G1 F2400 X40.259 Y42.33 E994.86731
G0 F4200 X40.825 Y42.33
G1 F2400 X34.71 Y48.445 E995.22685
G0 F4200 X34.71 Y49.01
G1 F2400 X41.391 Y42.33 E995.61964
G0 F4200 X41.956 Y42.33
G1 F2400 X34.71 Y49.576 E996.04567
G0 F4200 X34.71 Y50.142
G1 F2400 X42.522 Y42.33 E996.50499
G0 F4200 X43.088 Y42.33
G1 F2400 X34.71 Y50.708 E996.99758
G0 F4200 X34.71 Y51.273
G1 F2400 X43.653 Y42.33 E997.5234
G0 F4200 X44.219 Y42.33
G1 F2400 X34.71 Y51.839 E998.08249
G0 F4200 X34.71 Y52.405
G1 F2400 X44.785 Y42.33 E998.67486
G0 F4200 X45.351 Y42.33
G1 F2400 X34.71 Y52.97 E999.30048
G0 F4200 X34.71 Y53.536
G1 F2400 X45.916 Y42.33 E999.95935
G0 F4200 X46.482 Y42.33
G1 F2400 X34.71 Y54.102 E1000.6515
G0 F4200 X34.71 Y54.667
G1 F2400 X47.048 Y42.33 E1001.3769
G0 F4200 X47.613 Y42.33
G1 F2400 X34.71 Y55.233 E1002.13555
G0 F4200 X34.71 Y55.799
G1 F2400 X48.179 Y42.33 E1002.92747
G0 F4200 X48.745 Y42.33
G1 F2400 X34.71 Y56.364 E1003.75265
G0 F4200 X34.71 Y56.93
G1 F2400 X49.31 Y42.33 E1004.61107
G0 F4200 X49.876 Y42.33
G1 F2400 X34.71 Y57.496 E1005.50277
G0 F4200 X34.71 Y58.061
G1 F2400 X50.442 Y42.33 E1006.42773
G0 F4200 X51.007 Y42.33
G1 F2400 X34.71 Y58.627 E1007.38593
G0 F4200 X34.71 Y59.193
G1 F2400 X51.573 Y42.33 E1008.37741
G0 F4200 X52.139 Y42.33
G1 F2400 X34.71 Y59.759 E1009.40216
G0 F4200 X34.71 Y60.324
G1 F2400 X52.704 Y42.33 E1010.46014
G0 F4200 X53.27 Y42.33
G1 F2400 X34.71 Y60.89 E1011.5514
G0 F4200 X34.71 Y61.456
G1 F2400 X53.836 Y42.33 E1012.67594
G0 F4200 X54.401 Y42.33
G1 F2400 X34.71 Y62.021 E1013.83369
G0 F4200 X34.71 Y62.587
G1 F2400 X54.967 Y42.33 E1015.02472
G0 F4200 X55.533 Y42.33
G1 F2400 X34.71 Y63.153 E1016.24904
G0 F4200 X34.71 Y63.718
G1 F2400 X56.099 Y42.33 E1017.5066
G0 F4200 X56.664 Y42.33
G1 F2400 X34.71 Y64.284 E1018.79741
G0 F4200 X34.71 Y64.85
G1 F2400 X57.23 Y42.33 E1020.1215
G0 F4200 X57.796 Y42.33
G1 F2400 X34.71 Y65.415 E1021.47884
G0 F4200 X34.71 Y65.981
G1 F2400 X58.361 Y42.33 E1022.86943
G0 F4200 X58.927 Y42.33
G1 F2400 X34.71 Y66.547 E1024.29329
G0 F4200 X34.71 Y67.112
G1 F2400 X59.493 Y42.33 E1025.75041
G0 F4200 X60.058 Y42.33
G1 F2400 X34.71 Y67.678 E1027.24078
G0 F4200 X34.71 Y68.244
G1 F2400 X47.371 Y55.583 E1027.98519
G0 F4200 X47.614 Y55.34
G1 F2400 X60.624 Y42.33 E1028.75013
G0 F4200 X61.19 Y42.33
G1 F2400 X47.897 Y55.623 E1029.53171
G0 F4200 X48.18 Y55.905
G1 F2400 X61.755 Y42.33 E1030.32987
G0 F4200 X62.321 Y42.33
G1 F2400 X48.462 Y56.188 E1031.14469
G0 F4200 X48.745 Y56.471
G1 F2400 X62.887 Y42.33 E1031.97616
G0 F4200 X63.452 Y42.33
G1 F2400 X49.028 Y56.754 E1032.82424
G0 F4200 X49.31 Y57.038
G1 F2400 X64.018 Y42.33 E1033.68901
G0 F4200 X64.584 Y42.33
G1 F2400 X49.593 Y57.32 E1034.57039
G0 F4200 X49.876 Y57.603
G1 F2400 X65.149 Y42.33 E1035.46839
G0 F4200 X65.715 Y42.33
G1 F2400 X50.159 Y57.886 E1036.38302
G0 F4200 X50.442 Y58.169
G1 F2400 X66.281 Y42.33 E1037.31429
G0 F4200 X66.847 Y42.33
G1 F2400 X50.725 Y58.452 E1038.2622
G0 F4200 X51.018 Y58.724
G1 F2400 X67.412 Y42.33 E1039.22611
G0 F4200 X67.978 Y42.33
G1 F2400 X51.584 Y58.724 E1040.19001
G0 F4200 X52.149 Y58.724
G1 F2400 X68.544 Y42.33 E1041.15395
G0 F4200 X69.109 Y42.33
G1 F2400 X52.715 Y58.724 E1042.11785
G0 F4200 X53.281 Y58.724
G1 F2400 X69.675 Y42.33 E1043.08176
G0 F4200 X70.241 Y42.33
G1 F2400 X53.846 Y58.724 E1044.04569
G0 F4200 X54.412 Y58.724
G1 F2400 X70.806 Y42.33 E1045.00959
G0 F4200 X71.372 Y42.33
G1 F2400 X54.978 Y58.724 E1045.9735
G0 F4200 X55.543 Y58.724
G1 F2400 X71.938 Y42.33 E1046.93743
G0 F4200 X72.503 Y42.33
G1 F2400 X56.109 Y58.724 E1047.90134
G0 F4200 X56.675 Y58.724
G1 F2400 X73.069 Y42.33 E1048.86524
G0 F4200 X73.635 Y42.33
G1 F2400 X57.241 Y58.724 E1049.82915
G0 F4200 X57.806 Y58.724
G1 F2400 X74.2 Y42.33 E1050.79305
G0 F4200 X74.765 Y42.33
G1 F2400 X59.565 Y57.53 E1051.68675
G0 F4200 X60.131 Y57.53
G1 F2400 X75.331 Y42.33 E1052.58045
G0 F4200 X75.897 Y42.33
G1 F2400 X60.697 Y57.53 E1053.47416
G0 F4200 X61.263 Y57.53
G1 F2400 X76.462 Y42.33 E1054.36783
G0 F4200 X77.028 Y42.33
G1 F2400 X61.828 Y57.53 E1055.26153
G0 F4200 X62.394 Y57.53
G1 F2400 X77.594 Y42.33 E1056.15523
G0 F4200 X78.16 Y42.33
G1 F2400 X62.96 Y57.53 E1057.04893
G0 F4200 X63.525 Y57.53
G1 F2400 X78.725 Y42.33 E1057.94263
G0 F4200 X79.291 Y42.33
G1 F2400 X64.091 Y57.53 E1058.83634
G0 F4200 X64.657 Y57.53
G1 F2400 X79.857 Y42.33 E1059.73004
G0 F4200 X80.422 Y42.33
G1 F2400 X65.222 Y57.53 E1060.62374
G0 F4200 X65.788 Y57.53
G1 F2400 X80.988 Y42.33 E1061.51744
G0 F4200 X81.554 Y42.33
G1 F2400 X66.354 Y57.53 E1062.41114
G0 F4200 X66.919 Y57.53
G1 F2400 X82.119 Y42.33 E1063.30485
G0 F4200 X82.685 Y42.33
G1 F2400 X67.485 Y57.53 E1064.19855
G0 F4200 X68.051 Y57.53
G1 F2400 X83.251 Y42.33 E1065.09225
G0 F4200 X83.816 Y42.33
G1 F2400 X68.616 Y57.53 E1065.98595
G0 F4200 X69.182 Y57.53
G1 F2400 X84.382 Y42.33 E1066.87965
G0 F4200 X84.948 Y42.33
G1 F2400 X69.748 Y57.53 E1067.77335
G0 F4200 X70.313 Y57.53
G1 F2400 X85.513 Y42.33 E1068.66706
G0 F4200 X86.079 Y42.33
G1 F2400 X70.879 Y57.53 E1069.56076
G0 F4200 X71.445 Y57.53
G1 F2400 X86.645 Y42.33 E1070.45446
G0 F4200 X87.211 Y42.33
G1 F2400 X72.011 Y57.53 E1071.34816
G0 F4200 X72.576 Y57.53
G1 F2400 X87.776 Y42.33 E1072.24186
G0 F4200 X88.342 Y42.33
G1 F2400 X73.142 Y57.53 E1073.13556
G0 F4200 X73.708 Y57.53
G1 F2400 X88.908 Y42.33 E1074.02927
G0 F4200 X89.473 Y42.33
G1 F2400 X74.273 Y57.53 E1074.92297
G0 F4200 X74.839 Y57.53
G1 F2400 X90.039 Y42.33 E1075.81667
G0 F4200 X90.605 Y42.33
G1 F2400 X75.405 Y57.53 E1076.71037
G0 F4200 X75.97 Y57.53
G1 F2400 X91.17 Y42.33 E1077.60407
G0 F4200 X91.736 Y42.33
G1 F2400 X76.536 Y57.53 E1078.49777
G0 F4200 X77.102 Y57.53
G1 F2400 X92.302 Y42.33 E1079.39148
G0 F4200 X92.867 Y42.33
G1 F2400 X77.667 Y57.53 E1080.28518
G0 F4200 X78.233 Y57.53
G1 F2400 X93.433 Y42.33 E1081.17888
G0 F4200 X93.999 Y42.33
G1 F2400 X78.799 Y57.53 E1082.07258
G0 F4200 X79.364 Y57.53
G1 F2400 X94.564 Y42.33 E1082.96628
G0 F4200 X95.13 Y42.33
G1 F2400 X79.93 Y57.53 E1083.85999
G0 F4200 X80.496 Y57.53
G1 F2400 X95.696 Y42.33 E1084.75369
G0 F4200 X96.261 Y42.33
G1 F2400 X81.062 Y57.53 E1085.64736
G0 F4200 X81.627 Y57.53
G1 F2400 X96.827 Y42.33 E1086.54106
G0 F4200 X97.393 Y42.33
G1 F2400 X82.193 Y57.53 E1087.43476
G0 F4200 X82.759 Y57.53
G1 F2400 X97.959 Y42.33 E1088.32846
G0 F4200 X98.524 Y42.33
G1 F2400 X83.324 Y57.53 E1089.22217
G0 F4200 X83.89 Y57.53
G1 F2400 X99.09 Y42.33 E1090.11587
G0 F4200 X99.656 Y42.33
G1 F2400 X84.456 Y57.53 E1091.00957
G0 F4200 X85.021 Y57.53
G1 F2400 X100.221 Y42.33 E1091.90327
G0 F4200 X100.787 Y42.33
G1 F2400 X85.587 Y57.53 E1092.79697
G0 F4200 X86.153 Y57.53
G1 F2400 X101.353 Y42.33 E1093.69068
G0 F4200 X101.918 Y42.33
G1 F2400 X86.718 Y57.53 E1094.58438
G0 F4200 X87.284 Y57.53
G1 F2400 X102.484 Y42.33 E1095.47808
G0 F4200 X103.05 Y42.33
G1 F2400 X87.85 Y57.53 E1096.37178
G0 F4200 X88.415 Y57.53
G1 F2400 X103.615 Y42.33 E1097.26548
G0 F4200 X104.181 Y42.33
G1 F2400 X88.981 Y57.53 E1098.15918
G0 F4200 X89.547 Y57.53
G1 F2400 X104.747 Y42.33 E1099.05289
G0 F4200 X105.312 Y42.33
G1 F2400 X90.112 Y57.53 E1099.94659
G0 F4200 X90.678 Y57.53
G1 F2400 X105.878 Y42.33 E1100.84029
G0 F4200 X106.444 Y42.33
G1 F2400 X91.244 Y57.53 E1101.73399
G0 F4200 X91.81 Y57.53
G1 F2400 X107.01 Y42.33 E1102.62769
G0 F4200 X107.575 Y42.33
G1 F2400 X92.375 Y57.53 E1103.52139
G0 F4200 X92.941 Y57.53
G1 F2400 X108.141 Y42.33 E1104.4151
G0 F4200 X108.707 Y42.33
G1 F2400 X93.507 Y57.53 E1105.3088
G0 F4200 X94.072 Y57.53
G1 F2400 X109.272 Y42.33 E1106.2025
G0 F4200 X109.838 Y42.33
G1 F2400 X94.638 Y57.53 E1107.0962
G0 F4200 X95.204 Y57.53
G1 F2400 X110.404 Y42.33 E1107.9899
G0 F4200 X110.969 Y42.33
G1 F2400 X95.769 Y57.53 E1108.8836
G0 F4200 X96.335 Y57.53
G1 F2400 X111.535 Y42.33 E1109.77731
G0 F4200 X112.101 Y42.33
G1 F2400 X96.901 Y57.53 E1110.67101
G0 F4200 X97.466 Y57.53
G1 F2400 X112.666 Y42.33 E1111.56471
G0 F4200 X112.748 Y42.814
G1 F2400 X98.032 Y57.53 E1112.42995
G0 F4200 X98.598 Y57.53
G1 F2400 X112.748 Y43.38 E1113.26192
G0 F4200 X112.748 Y43.945
G1 F2400 X98.627 Y58.066 E1114.09218
G0 F4200 X98.628 Y58.631
G1 F2400 X112.748 Y44.511 E1114.92238
G0 F4200 X112.748 Y45.077
G1 F2400 X98.628 Y59.197 E1115.75258
G0 F4200 X98.693 Y59.698
G1 F2400 X112.748 Y45.643 E1116.57896
G0 F4200 X112.748 Y46.209
G1 F2400 X98.976 Y59.981 E1117.38871
G0 F4200 X99.259 Y60.263
G1 F2400 X112.748 Y46.775 E1118.18178
G0 F4200 X112.748 Y47.34
G1 F2400 X99.542 Y60.546 E1118.95824
G0 F4200 X99.825 Y60.829
G1 F2400 X112.748 Y47.906 E1119.71806
G0 F4200 X112.792 Y48.428
G1 F2400 X100.088 Y61.132 E1120.46501
G0 F4200 X100.088 Y61.697
G1 F2400 X113.074 Y48.711 E1121.22854
G0 F4200 X113.357 Y48.994
G1 F2400 X100.088 Y62.263 E1122.0087
G0 F4200 X100.088 Y62.829
G1 F2400 X113.64 Y49.276 E1122.80554
G0 F4200 X113.923 Y49.559
G1 F2400 X100.088 Y63.394 E1123.61898
G0 F4200 X100.088 Y63.96
G1 F2400 X114.206 Y49.842 E1124.44907
G0 F4200 X114.489 Y50.125
G1 F2400 X100.088 Y64.526 E1125.29579
G0 F4200 X100.088 Y65.092
G1 F2400 X114.771 Y50.408 E1126.15912
G0 F4200 X115.054 Y50.691
G1 F2400 X100.088 Y65.657 E1127.03907
G0 F4200 X100.088 Y66.223
G1 F2400 X115.288 Y51.022 E1127.9328
G0 F4200 X115.288 Y51.588
G1 F2400 X100.088 Y66.789 E1128.82653
G0 F4200 X100.088 Y67.354
G1 F2400 X115.288 Y52.154 E1129.72023
G0 F4200 X115.288 Y52.719
G1 F2400 X100.088 Y67.92 E1130.61396
G0 F4200 X100.088 Y68.486
G1 F2400 X115.288 Y53.285 E1131.50769
G0 F4200 X115.288 Y53.851
G1 F2400 X100.088 Y69.051 E1132.4014
G0 F4200 X100.088 Y69.617
G1 F2400 X115.288 Y54.416 E1133.29513
G0 F4200 X115.288 Y54.982
G1 F2400 X100.088 Y70.183 E1134.18886
G0 F4200 X100.088 Y70.748
G1 F2400 X115.288 Y55.548 E1135.08256
G0 F4200 X115.288 Y56.113
G1 F2400 X100.088 Y71.314 E1135.97629
G0 F4200 X100.088 Y71.88
G1 F2400 X115.288 Y56.679 E1136.87002
G0 F4200 X115.288 Y57.245
G1 F2400 X100.088 Y72.445 E1137.76372
G0 F4200 X100.088 Y73.011
G1 F2400 X115.288 Y57.81 E1138.65745
G0 F4200 X115.288 Y58.376
G1 F2400 X100.322 Y73.343 E1139.53743
G0 F4200 X100.605 Y73.626
G1 F2400 X115.288 Y58.942 E1140.40076
G0 F4200 X115.288 Y59.507
G1 F2400 X100.887 Y73.908 E1141.24748
G0 F4200 X101.17 Y74.191
G1 F2400 X115.288 Y60.073 E1142.07757
G0 F4200 X115.288 Y60.639
G1 F2400 X101.454 Y74.473 E1142.89096
G0 F4200 X101.737 Y74.756
G1 F2400 X115.288 Y61.205 E1143.6877
G0 F4200 X115.288 Y61.77
G1 F2400 X102.019 Y75.039 E1144.46787
G0 F4200 X102.302 Y75.322
G1 F2400 X115.288 Y62.336 E1145.2314
G0 F4200 X115.288 Y62.902
G1 F2400 X102.585 Y75.605 E1145.97828
G0 F4200 X102.459 Y75.731
G1 F2400 X100.088 Y78.102 E1146.11769
G0 F4200 X100.088 Y78.667
G1 F2400 X115.288 Y63.467 E1147.01139
G0 F4200 X115.288 Y64.033
G1 F2400 X98.831 Y80.49 E1147.979
G0 F4200 X98.831 Y81.056
G1 F2400 X115.288 Y64.599 E1148.94661
G0 F4200 X115.288 Y65.164
G1 F2400 X98.831 Y81.622 E1149.91425
G0 F4200 X98.831 Y82.187
G1 F2400 X115.288 Y65.73 E1150.88185
G0 F4200 X115.288 Y66.296
G1 F2400 X98.831 Y82.753 E1151.84946
G0 F4200 X98.831 Y83.319
G1 F2400 X115.288 Y66.861 E1152.8171
G0 F4200 X115.288 Y67.427
G1 F2400 X97.548 Y85.168 E1153.86017
G0 F4200 X97.548 Y85.733
G1 F2400 X115.288 Y67.993 E1154.90322
G0 F4200 X115.288 Y68.558
G1 F2400 X97.548 Y86.299 E1155.94629
G0 F4200 X97.548 Y86.865
G1 F2400 X115.288 Y69.124 E1156.98936
G0 F4200 X115.288 Y69.69
G1 F2400 X97.548 Y87.43 E1158.03241
G0 F4200 X97.548 Y87.996
G1 F2400 X115.288 Y70.256 E1159.07545
G0 F4200 X115.288 Y70.822
G1 F2400 X97.548 Y88.562 E1160.1185
G0 F4200 X97.548 Y89.127
G1 F2400 X115.288 Y71.388 E1161.16151
G0 F4200 X115.288 Y71.953
G1 F2400 X97.548 Y89.692 E1162.20453
G0 F4200 X97.548 Y90.258
G1 F2400 X115.288 Y72.519 E1163.24754
G0 F4200 X115.288 Y73.085
G1 F2400 X97.548 Y90.824 E1164.29056
G0 F4200 X97.548 Y91.39
G1 F2400 X115.288 Y73.65 E1165.3336
G0 F4200 X115.288 Y74.216
G1 F2400 X97.548 Y91.955 E1166.37661
G0 F4200 X97.035 Y92.469
G1 F2400 X81.835 Y107.669 E1167.27032
G0 F4200 X81.269 Y107.669
G1 F2400 X96.469 Y92.469 E1168.16402
G0 F4200 X95.904 Y92.469
G1 F2400 X80.704 Y107.669 E1169.05772
G0 F4200 X80.138 Y107.669
G1 F2400 X95.338 Y92.469 E1169.95142
G0 F4200 X94.772 Y92.469
G1 F2400 X79.572 Y107.669 E1170.84512
G0 F4200 X79.007 Y107.669
G1 F2400 X94.207 Y92.469 E1171.73882
G0 F4200 X93.641 Y92.469
G1 F2400 X78.441 Y107.669 E1172.63253
G0 F4200 X77.875 Y107.669
G1 F2400 X93.075 Y92.469 E1173.52623
G0 F4200 X92.51 Y92.469
G1 F2400 X77.31 Y107.669 E1174.41993
G0 F4200 X76.744 Y107.669
G1 F2400 X91.944 Y92.469 E1175.31363
G0 F4200 X91.378 Y92.469
G1 F2400 X76.178 Y107.669 E1176.20733
G0 F4200 X75.613 Y107.669
G1 F2400 X90.813 Y92.469 E1177.10104
G0 F4200 X90.247 Y92.469
G1 F2400 X75.047 Y107.669 E1177.99474
G0 F4200 X74.481 Y107.669
G1 F2400 X89.681 Y92.469 E1178.88844
G0 F4200 X89.115 Y92.469
G1 F2400 X73.915 Y107.669 E1179.78214
G0 F4200 X73.35 Y107.669
G1 F2400 X88.55 Y92.469 E1180.67584
G0 F4200 X87.984 Y92.469
G1 F2400 X72.784 Y107.669 E1181.56954
G0 F4200 X72.218 Y107.669
G1 F2400 X87.418 Y92.469 E1182.46325
G0 F4200 X86.853 Y92.469
G1 F2400 X71.653 Y107.669 E1183.35695
G0 F4200 X71.088 Y107.668
G1 F2400 X86.287 Y92.469 E1184.25059
G0 F4200 X85.721 Y92.469
G1 F2400 X70.522 Y107.668 E1185.14423
G0 F4200 X69.956 Y107.668
G1 F2400 X85.156 Y92.469 E1186.03791
G0 F4200 X84.59 Y92.469
G1 F2400 X69.391 Y107.668 E1186.93155
G0 F4200 X68.825 Y107.668
G1 F2400 X84.024 Y92.469 E1187.82519
G0 F4200 X83.459 Y92.469
G1 F2400 X68.259 Y107.668 E1188.71886
G0 F4200 X67.694 Y107.668
G1 F2400 X82.893 Y92.469 E1189.61251
G0 F4200 X82.327 Y92.469
G1 F2400 X67.128 Y107.668 E1190.50615
G0 F4200 X66.562 Y107.668
G1 F2400 X81.762 Y92.469 E1191.39982
G0 F4200 X81.196 Y92.469
G1 F2400 X65.997 Y107.668 E1192.29346
G0 F4200 X65.431 Y107.668
G1 F2400 X80.63 Y92.469 E1193.18711
G0 F4200 X80.064 Y92.469
G1 F2400 X64.865 Y107.668 E1194.08075
G0 F4200 X64.3 Y107.668
G1 F2400 X79.499 Y92.469 E1194.97439
G0 F4200 X78.934 Y92.468
G1 F2400 X63.734 Y107.668 E1195.8681
G0 F4200 X63.168 Y107.668
G1 F2400 X78.368 Y92.468 E1196.7618
G0 F4200 X77.802 Y92.468
G1 F2400 X62.602 Y107.668 E1197.6555
G0 F4200 X62.037 Y107.668
G1 F2400 X77.237 Y92.468 E1198.5492
G0 F4200 X76.671 Y92.468
G1 F2400 X61.471 Y107.668 E1199.4429
G0 F4200 X60.905 Y107.668
G1 F2400 X76.105 Y92.468 E1200.3366
G0 F4200 X75.54 Y92.468
G1 F2400 X60.34 Y107.668 E1201.23031
G0 F4200 X59.774 Y107.668
G1 F2400 X74.974 Y92.468 E1202.12401
G0 F4200 X74.408 Y92.468
G1 F2400 X59.208 Y107.668 E1203.01771
G0 F4200 X58.643 Y107.668
G1 F2400 X73.843 Y92.468 E1203.91141
G0 F4200 X73.277 Y92.468
G1 F2400 X58.077 Y107.668 E1204.80511
G0 F4200 X57.511 Y107.668
G1 F2400 X72.711 Y92.468 E1205.69881
G0 F4200 X72.146 Y92.468
G1 F2400 X56.946 Y107.668 E1206.59252
G0 F4200 X56.38 Y107.668
G1 F2400 X71.58 Y92.468 E1207.48622
G0 F4200 X71.014 Y92.468
G1 F2400 X55.814 Y107.668 E1208.37992
G0 F4200 X55.249 Y107.668
G1 F2400 X70.449 Y92.468 E1209.27362
G0 F4200 X69.883 Y92.468
G1 F2400 X54.683 Y107.668 E1210.16732
G0 F4200 X54.117 Y107.668
G1 F2400 X69.317 Y92.468 E1211.06103
G0 F4200 X68.751 Y92.468
G1 F2400 X53.552 Y107.668 E1211.9547
G0 F4200 X52.986 Y107.668
G1 F2400 X68.186 Y92.468 E1212.8484
G0 F4200 X67.62 Y92.468
G1 F2400 X52.42 Y107.668 E1213.7421
G0 F4200 X51.854 Y107.668
G1 F2400 X67.054 Y92.468 E1214.6358
G0 F4200 X66.489 Y92.468
G1 F2400 X51.289 Y107.668 E1215.5295
G0 F4200 X50.723 Y107.668
G1 F2400 X65.923 Y92.468 E1216.42321
G0 F4200 X65.357 Y92.468
G1 F2400 X50.157 Y107.668 E1217.31691
G0 F4200 X49.592 Y107.668
G1 F2400 X64.792 Y92.468 E1218.21061
G0 F4200 X64.226 Y92.468
G1 F2400 X49.026 Y107.668 E1219.10431
G0 F4200 X48.46 Y107.668
G1 F2400 X63.66 Y92.468 E1219.99801
G0 F4200 X63.095 Y92.468
G1 F2400 X47.895 Y107.668 E1220.89172
G0 F4200 X47.329 Y107.668
G1 F2400 X62.529 Y92.468 E1221.78542
G0 F4200 X61.963 Y92.468
G1 F2400 X46.763 Y107.668 E1222.67912
G0 F4200 X46.198 Y107.668
G1 F2400 X61.398 Y92.468 E1223.57282
G0 F4200 X60.861 Y92.439
G1 F2400 X45.632 Y107.668 E1224.46823
G0 F4200 X45.066 Y107.668
G1 F2400 X60.578 Y92.156 E1225.38027
G0 F4200 X60.295 Y91.873
G1 F2400 X44.501 Y107.668 E1226.30893
G0 F4200 X43.935 Y107.668
G1 F2400 X60.012 Y91.59 E1227.25422
G0 F4200 X59.73 Y91.307
G1 F2400 X43.369 Y107.668 E1228.21619
G0 F4200 X42.804 Y107.668
G1 F2400 X59.26 Y91.211 E1229.18377
G0 F4200 X58.694 Y91.211
G1 F2400 X42.238 Y107.668 E1230.15135
G0 F4200 X41.672 Y107.668
G1 F2400 X58.129 Y91.211 E1231.11896
G0 F4200 X57.563 Y91.211
G1 F2400 X41.106 Y107.668 E1232.08656
G0 F4200 X40.541 Y107.668
G1 F2400 X56.997 Y91.211 E1233.05414
G0 F4200 X56.432 Y91.211
G1 F2400 X39.975 Y107.668 E1234.02175
G0 F4200 X39.409 Y107.668
G1 F2400 X55.867 Y91.211 E1234.98939
G0 F4200 X55.301 Y91.211
G1 F2400 X38.844 Y107.668 E1235.957
G0 F4200 X38.278 Y107.668
G1 F2400 X54.735 Y91.211 E1236.92461
G0 F4200 X54.17 Y91.211
G1 F2400 X37.712 Y107.668 E1237.89224
G0 F4200 X37.147 Y107.668
G1 F2400 X53.604 Y91.211 E1238.85985
G0 F4200 X53.038 Y91.211
G1 F2400 X36.581 Y107.668 E1239.82746
G0 F4200 X36.015 Y107.668
G1 F2400 X52.472 Y91.211 E1240.79507
G1 F2400 E1239.79507
G0 F4200 X50.65 Y92.468
G1 F2400 E1240.79507
G1 X35.45 Y107.668 E1241.68877
G0 F4200 X34.884 Y107.668
G1 F2400 X50.084 Y92.468 E1242.58247
G0 F4200 X49.518 Y92.468
G1 F2400 X34.71 Y107.276 E1243.45313
G0 F4200 X34.71 Y106.71
G1 F2400 X49.036 Y92.384 E1244.29544
G0 F4200 X48.753 Y92.102
G1 F2400 X34.71 Y106.145 E1245.12112
G0 F4200 X34.71 Y105.579
G1 F2400 X48.47 Y91.819 E1245.93015
G0 F4200 X48.188 Y91.535
G1 F2400 X34.71 Y105.013 E1246.72261
G0 F4200 X34.71 Y104.448
G1 F2400 X47.905 Y91.252 E1247.49845
G0 F4200 X47.622 Y90.969
G1 F2400 X34.71 Y103.882 E1248.25766
G0 F4200 X34.71 Y103.316
G1 F2400 X47.371 Y90.656 E1249.00205
G0 F4200 X47.371 Y90.09
G1 F2400 X34.71 Y102.751 E1249.74646
G0 F4200 X34.71 Y102.185
G1 F2400 X47.371 Y89.524 E1250.49088
G0 F4200 X47.371 Y88.958
G1 F2400 X34.71 Y101.619 E1251.2353
G0 F4200 X34.71 Y101.054
G1 F2400 X47.371 Y88.393 E1251.97972
G0 F4200 X47.371 Y87.827
G1 F2400 X34.71 Y100.488 E1252.72414
G0 F4200 X34.71 Y99.922
G1 F2400 X47.371 Y87.261 E1253.46855
G0 F4200 X47.371 Y86.696
G1 F2400 X34.71 Y99.356 E1254.21294
G0 F4200 X34.71 Y98.791
G1 F2400 X47.371 Y86.13 E1254.95736
G0 F4200 X47.371 Y85.564
G1 F2400 X34.71 Y98.225 E1255.70178
G0 F4200 X34.71 Y97.659
G1 F2400 X47.371 Y84.999 E1256.44617
G0 F4200 X47.371 Y84.433
G1 F2400 X34.71 Y97.094 E1257.19059
G0 F4200 X34.71 Y96.528
G1 F2400 X47.371 Y83.867 E1257.93501
G0 F4200 X47.371 Y83.302
G1 F2400 X34.71 Y95.962 E1258.67939
G0 F4200 X34.71 Y95.397
G1 F2400 X47.371 Y82.736 E1259.42381
G0 F4200 X47.371 Y82.17
G1 F2400 X34.71 Y94.831 E1260.16823
G0 F4200 X34.71 Y94.265
G1 F2400 X49.911 Y79.065 E1261.06196
G0 F4200 X49.911 Y78.499
G1 F2400 X34.71 Y93.7 E1261.95572
G0 F4200 X34.71 Y93.134
G1 F2400 X49.911 Y77.933 E1262.84948
G0 F4200 X49.911 Y77.368
G1 F2400 X34.71 Y92.568 E1263.74321
G0 F4200 X34.71 Y92.003
G1 F2400 X49.911 Y76.802 E1264.63698
G0 F4200 X49.911 Y76.236
G1 F2400 X34.71 Y91.437 E1265.53074
G0 F4200 X34.71 Y90.871
G1 F2400 X49.911 Y75.671 E1266.42447
G0 F4200 X49.911 Y75.105
G1 F2400 X34.71 Y90.306 E1267.31823
G0 F4200 X34.71 Y89.74
G1 F2400 X49.911 Y74.539 E1268.21199
G0 F4200 X49.911 Y73.973
G1 F2400 X34.71 Y89.174 E1269.10575
G0 F4200 X34.71 Y88.608
G1 F2400 X49.911 Y73.408 E1269.99948
G0 F4200 X49.911 Y72.842
G1 F2400 X34.71 Y88.043 E1270.89324
G0 F4200 X34.71 Y87.477
G1 F2400 X49.911 Y72.276 E1271.787
G0 F4200 X49.911 Y71.711
G1 F2400 X34.71 Y86.911 E1272.68073
G0 F4200 X34.71 Y86.346
G1 F2400 X49.911 Y71.145 E1273.57449
G0 F4200 X49.911 Y70.579
G1 F2400 X34.71 Y85.78 E1274.46825
G0 F4200 X34.71 Y85.214
G1 F2400 X49.911 Y70.014 E1275.36198
G0 F4200 X49.911 Y69.448
G1 F2400 X34.71 Y84.649 E1276.25574
G0 F4200 X34.71 Y84.083
G1 F2400 X49.911 Y68.882 E1277.14951
G0 F4200 X49.911 Y68.317
G1 F2400 X34.71 Y83.517 E1278.04324
G0 F4200 X34.71 Y82.952
G1 F2400 X49.911 Y67.751 E1278.937
G0 F4200 X49.911 Y67.185
G1 F2400 X34.71 Y82.386 E1279.83076
G0 F4200 X34.71 Y81.82
G1 F2400 X49.911 Y66.62 E1280.72449
G0 F4200 X49.911 Y66.054
G1 F2400 X34.71 Y81.255 E1281.61825
G0 F4200 X34.71 Y80.689
G1 F2400 X49.911 Y65.488 E1282.51201
G0 F4200 X49.911 Y64.923
G1 F2400 X34.71 Y80.123 E1283.40574
G0 F4200 X34.71 Y79.557
G1 F2400 X49.911 Y64.357 E1284.29947
G0 F4200 X49.911 Y63.791
G1 F2400 X34.71 Y78.992 E1285.19323
G0 F4200 X34.71 Y78.426
G1 F2400 X49.911 Y63.225 E1286.08699
G0 F4200 X49.911 Y62.66
G1 F2400 X34.71 Y77.86 E1286.98072
G0 F4200 X34.71 Y77.295
G1 F2400 X49.911 Y62.094 E1287.87448
G0 F4200 X49.911 Y61.528
G1 F2400 X34.71 Y76.729 E1288.76825
G0 F4200 X34.71 Y76.163
G1 F2400 X49.911 Y60.963 E1289.66198
G0 F4200 X49.69 Y60.618
G1 F2400 X34.71 Y75.598 E1290.54274
G0 F4200 X34.71 Y75.032
G1 F2400 X49.407 Y60.335 E1291.40687
G0 F4200 X49.124 Y60.052
G1 F2400 X34.71 Y74.466 E1292.25436
G0 F4200 X34.71 Y73.901
G1 F2400 X48.841 Y59.769 E1293.08524
G0 F4200 X48.559 Y59.486
G1 F2400 X34.71 Y73.335 E1293.8995
G0 F4200 X34.71 Y72.769
G1 F2400 X48.276 Y59.203 E1294.69713
G0 F4200 X47.993 Y58.921
G1 F2400 X34.71 Y72.204 E1295.47812
G0 F4200 X34.71 Y71.638
G1 F2400 X47.71 Y58.638 E1296.24247
G0 F4200 X47.427 Y58.355
G1 F2400 X34.71 Y71.072 E1296.99018
G0 F4200 X34.71 Y70.507
G1 F2400 X47.37 Y57.846 E1297.73457
G0 F4200 X47.37 Y57.281
G1 F2400 X34.71 Y69.941 E1298.47893
G0 F4200 X34.71 Y69.375
G1 F2400 X47.37 Y56.715 E1299.22329
G0 F4200 X47.371 Y56.149
G1 F2400 X34.71 Y68.809 E1299.96768
G1 F2400 E1298.96768
G0 F4200 X82.401 Y107.669
G1 F2400 E1299.96768
G1 X115.288 Y74.782 E1301.90131
G0 F4200 X115.288 Y75.347
G1 F2400 X82.966 Y107.669 E1303.80172
G0 F4200 X83.532 Y107.669
G1 F2400 X115.288 Y75.913 E1305.66885
G0 F4200 X115.288 Y76.479
G1 F2400 X84.098 Y107.669 E1307.5027
G0 F4200 X84.664 Y107.669
G1 F2400 X115.288 Y77.044 E1309.30331
G0 F4200 X115.288 Y77.61
G1 F2400 X85.229 Y107.669 E1311.07066
G0 F4200 X85.795 Y107.669
G1 F2400 X115.288 Y78.176 E1312.80474
G0 F4200 X115.288 Y78.741
G1 F2400 X86.361 Y107.669 E1314.50556
G0 F4200 X86.926 Y107.669
G1 F2400 X115.288 Y79.307 E1316.17314
G0 F4200 X115.288 Y79.873
G1 F2400 X87.492 Y107.669 E1317.80744
G0 F4200 X88.058 Y107.669
G1 F2400 X115.288 Y80.439 E1319.40846
G0 F4200 X115.288 Y81.004
G1 F2400 X88.623 Y107.669 E1320.97626
G0 F4200 X89.189 Y107.669
G1 F2400 X115.288 Y81.57 E1322.51078
G0 F4200 X115.288 Y82.136
G1 F2400 X89.755 Y107.669 E1324.01202
G0 F4200 X90.32 Y107.669
G1 F2400 X115.288 Y82.701 E1325.48004
G0 F4200 X115.288 Y83.267
G1 F2400 X90.886 Y107.669 E1326.91479
G0 F4200 X91.452 Y107.669
G1 F2400 X115.288 Y83.833 E1328.31625
G0 F4200 X115.288 Y84.398
G1 F2400 X92.017 Y107.669 E1329.6845
G0 F4200 X92.583 Y107.669
G1 F2400 X115.288 Y84.964 E1331.01947
G0 F4200 X115.288 Y85.53
G1 F2400 X93.149 Y107.669 E1332.32115
G0 F4200 X93.714 Y107.669
G1 F2400 X115.288 Y86.095 E1333.58962
G0 F4200 X115.288 Y86.661
G1 F2400 X94.28 Y107.669 E1334.82481
G0 F4200 X94.846 Y107.669
G1 F2400 X115.288 Y87.227 E1336.02672
G0 F4200 X115.288 Y87.792
G1 F2400 X95.412 Y107.669 E1337.19539
G0 F4200 X95.977 Y107.669
G1 F2400 X115.288 Y88.358 E1338.3308
G1 F2400 E1337.3308
G0 F4200 X112.748 Y91.464
G1 F2400 E1338.3308
G1 X96.543 Y107.669 E1339.28359
G0 F4200 X97.109 Y107.669
G1 F2400 X112.748 Y92.029 E1340.20313
G0 F4200 X112.748 Y92.595
G1 F2400 X97.674 Y107.669 E1341.08943
G0 F4200 X98.24 Y107.669
G1 F2400 X112.748 Y93.161 E1341.94244
G0 F4200 X112.748 Y93.727
G1 F2400 X98.806 Y107.669 E1342.76218
G0 F4200 X99.371 Y107.669
G1 F2400 X112.748 Y94.292 E1343.54869
G0 F4200 X112.748 Y94.858
G1 F2400 X99.937 Y107.669 E1344.30193
G0 F4200 X100.503 Y107.669
G1 F2400 X112.748 Y95.424 E1345.02189
G0 F4200 X112.748 Y95.989
G1 F2400 X101.068 Y107.669 E1345.70863
G0 F4200 X101.634 Y107.669
G1 F2400 X112.748 Y96.555 E1346.36209
G0 F4200 X112.748 Y97.121
G1 F2400 X102.2 Y107.669 E1346.98227
G0 F4200 X102.765 Y107.669
G1 F2400 X112.748 Y97.686 E1347.56923
G0 F4200 X112.748 Y98.252
G1 F2400 X103.331 Y107.669 E1348.12292
G0 F4200 X103.897 Y107.669
G1 F2400 X112.748 Y98.818 E1348.64332
G0 F4200 X112.748 Y99.383
G1 F2400 X104.463 Y107.669 E1349.13048
G0 F4200 X105.028 Y107.669
G1 F2400 X112.748 Y99.949 E1349.58438
G0 F4200 X112.748 Y100.515
G1 F2400 X105.594 Y107.669 E1350.00501
G0 F4200 X106.16 Y107.669
G1 F2400 X112.748 Y101.08 E1350.39239
G0 F4200 X112.748 Y101.646
G1 F2400 X106.725 Y107.669 E1350.74652
G0 F4200 X107.291 Y107.669
G1 F2400 X112.748 Y102.212 E1351.06737
G1 F2400 E1350.06737
G0 F4200 X100.088 Y77.536
G1 F2400 E1351.06737
G1 X101.894 Y75.731 E1351.17353
G0 F4200 X101.328 Y75.731
G1 F2400 X100.088 Y76.971 E1351.24643
G0 F4200 X100.088 Y76.405
G1 F2400 X100.762 Y75.731 E1351.28606
G0 F4200 X100.197 Y75.731
G1 F2400 X100.088 Y75.84 E1351.29247
; Layer Change GCode
; LAYER:0
M400
M107
G1 F2400 E1350.29247
G0 F4200 X100.088 Y75.84 Z1.57
G0 X103.949 Y71.013
G0 X105.149 Y71.013
G0 X105.749 Y70.765
G0 X106.668 Y71.048
G0 X108.289 Y72.669
G0 X109.172 Y83.686
G0 X109.102 Y84.269
G0 X108.891 Y84.818
G0 X108.555 Y85.299
G0 X103.209 Y98.129
G0 X55.858 Y101.55
G0 X55.28 Y101.457
G0 X44.251 Y98.129
G0 X44.251 Y97.729
G0 X44.651 Y97.729
; TYPE:WALL-OUTER
G1 F2400 E1351.29247
G1 F840 X53.295 Y97.729 E1351.72372
G1 X54.551 Y96.472 E1351.81238
G1 X57.456 Y96.472 E1351.95731
G1 X58.712 Y97.729 E1352.04596
G1 X102.809 Y97.729 E1354.24597
G1 X102.809 Y87.083 E1354.7771
G1 X104.092 Y85.801 E1354.86759
G1 X104.092 Y82.181 E1355.04819
G1 X105.283 Y80.991 E1355.13219
G1 X106.502 Y80.991 E1355.193
G1 X107.889 Y79.604 E1355.29086
G1 X107.889 Y72.835 E1355.62857
G1 X106.502 Y71.448 E1355.72643
G1 X105.866 Y71.448 E1355.75816
G1 X105.349 Y70.931 E1355.79464
G1 X105.349 Y58.916 E1356.39407
G1 X103.889 Y57.456 E1356.49708
G1 X103.889 Y53.582 E1356.69035
G1 X102.809 Y52.503 E1356.76652
G1 X102.809 Y52.271 E1356.77809
G1 X57.379 Y52.271 E1359.0446
G1 X56.186 Y53.465 E1359.12881
G1 X53.175 Y53.465 E1359.27903
G1 X52.137 Y52.427 E1359.35227
G1 X52.137 Y49.731 E1359.48677
G1 X44.768 Y49.731 E1359.85441
G1 X42.111 Y52.388 E1360.04188
G1 X42.111 Y60.478 E1360.44549
G1 X44.651 Y63.017 E1360.62466
G1 X44.651 Y77.422 E1361.34333
G1 X42.111 Y79.961 E1361.52251
G1 X42.111 Y92.898 E1362.16794
G1 X44.651 Y95.437 E1362.34711
G1 X44.651 Y97.729 E1362.46146
G1 F2400 E1361.46146
G0 F4200 X44.251 Y97.729
G0 X44.251 Y98.129
G0 X53.461 Y98.129
; TYPE:WALL-INNER
G1 F2400 E1362.46146
G1 F840 X44.251 Y98.129 E1362.92095
G1 X44.251 Y95.603 E1363.04697
G1 X41.711 Y93.064 E1363.22615
G1 X41.711 Y79.795 E1363.88814
G1 X44.251 Y77.256 E1364.06732
G1 X44.251 Y63.183 E1364.76942
G1 X41.711 Y60.644 E1364.9486
G1 X41.711 Y52.222 E1365.36877
G1 X44.602 Y49.331 E1365.57275
G1 X52.537 Y49.331 E1365.96863
G1 X52.537 Y49.58 E1365.98105
G0 F4200 X52.583 Y49.58
G1 F840 X52.537 Y49.779 E1365.99124
G0 F4200 X52.583 Y49.679
G1 F840 X52.626 Y49.528 E1366.00311
G0 F4200 X52.715 Y49.476
G1 F840 X53.001 Y49.126 E1366.02566
G1 X53.469 Y48.772 E1366.05493
G1 X54.01 Y48.543 E1366.08424
G1 X54.588 Y48.45 E1366.11345
G1 X55.162 Y48.498 E1366.14219
G1 X55.516 Y48.605 E1366.16064
G1 X55.732 Y48.693 E1366.17227
G1 X56.057 Y48.882 E1366.19103
G1 X56.486 Y49.258 E1366.21949
G1 X56.822 Y49.739 E1366.24876
G1 X57.033 Y50.288 E1366.2781
G1 X57.103 Y50.87 E1366.30735
G1 X57.033 Y51.448 E1366.3364
G1 X56.914 Y51.758 E1366.35296
G0 F4200 X57.063 Y51.814
G1 F840 X56.881 Y52.074 E1366.37596
G1 X56.515 Y52.512 E1366.41028
G1 X56.099 Y52.901 E1366.44452
G0 F4200 X56.057 Y52.859
G1 F840 X55.941 Y52.924 E1366.45115
G0 F4200 X55.98 Y52.994
G1 F840 X55.69 Y53.065 E1366.46605
G0 F4200 X55.855 Y53.065
G1 F840 X56.041 Y52.933 E1366.48311
G1 F2400 E1365.48311
G0 F4200 X57.213 Y51.871
G1 F2400 E1366.48311
G1 F840 X103.209 Y51.871 E1368.77786
G1 X103.209 Y52.337 E1368.80111
G1 X104.289 Y53.416 E1368.87728
G1 X104.289 Y54.661 E1368.93939
G0 F4200 X104.392 Y54.661
G1 F840 X104.289 Y55.103 E1368.96203
G0 F4200 X104.496 Y54.661
G1 F840 X104.866 Y54.206 E1368.99129
G1 X105.335 Y53.852 E1369.02061
G1 X105.875 Y53.623 E1369.04987
G1 X106.454 Y53.53 E1369.07913
G1 X107.028 Y53.578 E1369.10786
G1 X107.382 Y53.685 E1369.12631
G1 X107.598 Y53.773 E1369.13795
G1 X107.923 Y53.962 E1369.15671
G1 X108.352 Y54.338 E1369.18517
G1 X108.688 Y54.819 E1369.21444
G1 X108.899 Y55.368 E1369.24378
G1 X108.969 Y55.95 E1369.27303
G1 X108.899 Y56.529 E1369.30212
G1 X108.684 Y57.088 E1369.332
G1 X108.352 Y57.563 E1369.36092
G1 X107.923 Y57.939 E1369.38938
G1 X107.598 Y58.128 E1369.40813
G1 X107.382 Y58.216 E1369.41977
G1 X107.028 Y58.323 E1369.43822
G1 X106.454 Y58.371 E1369.46696
G1 X105.875 Y58.278 E1369.49621
G1 X105.335 Y58.049 E1369.52548
G0 F4200 X105.263 Y58.121
G1 F840 X104.823 Y57.738 E1369.56346
G1 X104.432 Y57.304 E1369.60579
G1 X104.383 Y57.245 E1369.61134
G0 F4200 X104.392 Y57.265
G1 F840 X104.383 Y57.22 E1369.61363
G1 X104.289 Y56.798 E1369.6352
G1 F2400 E1368.6352
G0 F4200 X104.496 Y57.24
G0 X105.192 Y58.193
G1 F2400 E1369.6352
G1 F840 X105.749 Y58.751 E1369.67454
G1 X105.749 Y70.765 E1370.27392
G1 X106.032 Y71.048 E1370.29389
G1 X106.668 Y71.048 E1370.32562
G1 X108.289 Y72.669 E1370.43999
G1 X108.289 Y79.77 E1370.79426
G1 X106.988 Y81.071 E1370.88605
G0 F4200 X107.109 Y81.192
G1 F840 X106.783 Y81.276 E1370.90285
G0 F4200 X107.231 Y81.314
G1 F840 X107.585 Y81.421 E1370.9213
G1 X107.8 Y81.509 E1370.93289
G1 X108.11 Y81.687 E1370.95072
G1 X108.295 Y81.831 E1370.96242
G1 X108.562 Y82.083 E1370.98073
G1 X108.891 Y82.554 E1371.0094
G1 X109.102 Y83.103 E1371.03874
G1 X109.172 Y83.686 E1371.06803
G1 X109.102 Y84.264 E1371.09708
G1 X108.886 Y84.826 E1371.12712
G1 X108.555 Y85.299 E1371.15592
G1 X108.126 Y85.675 E1371.18438
G1 X107.801 Y85.864 E1371.20314
G1 X107.585 Y85.952 E1371.21477
G1 X107.231 Y86.059 E1371.23323
G1 X106.657 Y86.107 E1371.26196
G1 X106.079 Y86.014 E1371.29117
G1 X105.538 Y85.785 E1371.32048
G1 X105.07 Y85.431 E1371.34975
G1 X104.699 Y84.977 E1371.37901
G0 F4200 X104.595 Y84.977
G1 F840 X104.492 Y84.534 E1371.4017
G0 F4200 X104.492 Y84.977
G1 F840 X104.492 Y85.967 E1371.45109
G1 X103.209 Y87.249 E1371.54157
G1 X103.209 Y98.129 E1372.08438
G1 X58.546 Y98.129 E1374.31263
G0 F4200 X58.37 Y98.197
G1 F840 X58.173 Y97.917 E1374.33504
G1 X57.8 Y97.472 E1374.37307
G1 X57.384 Y97.082 E1374.4104
G0 F4200 X57.442 Y97.024
G1 F840 X57.29 Y96.872 E1374.42113
G0 F4200 X57.308 Y97.006
G1 F840 X57.092 Y96.964 E1374.4379
G1 X56.904 Y96.912 E1374.45276
G0 F4200 X57.002 Y96.912
G1 F840 X56.806 Y96.872 E1374.46274
G1 F2400 E1373.46274
G0 F4200 X57.002 Y96.952
G0 X57.327 Y97.141
G0 X57.756 Y97.517
G0 X58.092 Y97.998
G0 X58.303 Y98.547
G0 X58.373 Y99.13
G0 X58.303 Y99.712
G0 X58.092 Y100.261
G0 X57.756 Y100.742
G0 X57.327 Y101.118
G0 X57.002 Y101.307
G0 X56.786 Y101.395
G0 X56.432 Y101.502
G0 X55.858 Y101.55
G0 X55.28 Y101.457
G0 X54.739 Y101.228
G0 X54.271 Y100.874
G0 X53.9 Y100.42
G0 X53.656 Y99.898
G0 X53.57 Y99.538
G0 X53.54 Y99.307
G0 X53.54 Y98.952
G0 X53.57 Y98.721
G0 X53.656 Y98.361
G0 X53.9 Y97.839
G0 X54.271 Y97.385
G0 X54.739 Y97.031
G0 X55.115 Y96.872
G1 F2400 E1374.46274
G1 F840 X54.758 Y96.943 E1374.4809
G0 F4200 X54.747 Y96.943
G1 F840 X54.927 Y96.872 E1374.49427
G0 F4200 X54.916 Y96.872
G1 F840 X54.713 Y96.977 E1374.50989
G0 F4200 X54.694 Y96.985
G1 F840 X54.254 Y97.368 E1374.54234
G1 X53.862 Y97.802 E1374.57488
G1 X53.586 Y98.187 E1374.60471
G0 F4200 X53.711 Y98.245
G1 F840 X53.656 Y98.361 E1374.61112
G1 X53.57 Y98.721 E1374.62958
G1 X53.54 Y98.952 E1374.64121
G1 X53.54 Y99.307 E1374.65892
G1 X53.57 Y99.538 E1374.67054
G1 X53.656 Y99.898 E1374.689
G1 X53.9 Y100.42 E1374.71775
G1 X54.271 Y100.874 E1374.747
G1 X54.739 Y101.228 E1374.77628
G1 X55.28 Y101.457 E1374.80559
G1 X55.858 Y101.55 E1374.83479
G1 X56.432 Y101.502 E1374.86353
G1 X56.786 Y101.395 E1374.88198
G1 X57.002 Y101.307 E1374.89362
G1 X57.327 Y101.118 E1374.91237
G1 X57.756 Y100.742 E1374.94083
G1 X58.087 Y100.269 E1374.96964
G1 X58.303 Y99.707 E1374.99967
G1 X58.373 Y99.13 E1375.02867
G1 X58.303 Y98.547 E1375.05797
G1 X58.195 Y98.265 E1375.07303
G1 F2400 E1374.07303
G0 F4200 X58.303 Y98.547
G0 X58.373 Y99.13
G0 X58.303 Y99.712
G0 X58.092 Y100.261
G0 X57.756 Y100.742
G0 X57.327 Y101.118
G0 X57.002 Y101.307
G0 X56.786 Y101.395
G0 X56.432 Y101.502
G0 X55.858 Y101.55
G0 X55.28 Y101.457
G0 X54.739 Y101.228
G0 X54.271 Y100.874
G0 X53.9 Y100.42
G0 X53.656 Y99.898
G0 X53.57 Y99.538
G0 X53.54 Y99.307
G0 X53.54 Y98.952
G0 X53.57 Y98.721
G0 X53.656 Y98.361
G0 X53.9 Y97.839
G0 X54.271 Y97.385
G0 X54.739 Y97.031
G0 X54.778 Y97.014
G1 F2400 E1375.07303
G1 F840 X54.739 Y97.031 E1375.07516
G0 F4200 X54.271 Y97.385
G0 X53.9 Y97.839
G0 X53.656 Y98.361
G0 X53.57 Y98.721
G0 X53.54 Y98.952
G0 X53.54 Y99.307
G0 X53.57 Y99.538
G0 X53.656 Y99.898
G0 X53.9 Y100.42
G0 X54.271 Y100.874
G0 X54.739 Y101.228
G0 X55.28 Y101.457
G0 X55.81 Y101.542
G0 X55.873 Y101.147
; TYPE:WALL-OUTER
G1 F840 X56.357 Y101.107 E1375.09938
G1 X56.652 Y101.018 E1375.11476
G1 X56.825 Y100.947 E1375.12409
G1 X57.093 Y100.791 E1375.13956
G1 X57.456 Y100.473 E1375.16363
G1 X57.734 Y100.075 E1375.18785
G1 X57.912 Y99.613 E1375.21256
G1 X57.97 Y99.13 E1375.23683
G1 X57.912 Y98.644 E1375.26124
G1 X57.736 Y98.187 E1375.28568
G1 X57.456 Y97.786 E1375.31008
G1 X57.093 Y97.468 E1375.33415
G1 X56.825 Y97.312 E1375.34962
G1 X56.652 Y97.241 E1375.35895
G1 X56.357 Y97.152 E1375.37433
G1 X55.873 Y97.112 E1375.39856
G1 X55.391 Y97.189 E1375.42291
G1 X54.94 Y97.38 E1375.44734
G1 X54.55 Y97.675 E1375.47174
G1 X54.241 Y98.054 E1375.49614
G1 X54.035 Y98.494 E1375.52037
G1 X53.964 Y98.793 E1375.53571
G1 X53.94 Y98.978 E1375.54501
G1 X53.94 Y99.281 E1375.56013
G1 X53.964 Y99.466 E1375.56944
G1 X54.035 Y99.765 E1375.58477
G1 X54.241 Y100.205 E1375.60901
G1 X54.55 Y100.584 E1375.6334
G1 X54.94 Y100.879 E1375.6578
G1 X55.391 Y101.07 E1375.68224
G1 X55.873 Y101.147 E1375.70659
G1 F2400 E1374.70659
G0 F4200 X55.81 Y101.542
G0 X40.371 Y102.009
; TYPE:WALL-INNER
G1 F2400 E1375.70659
G1 F840 X40.371 Y47.991 E1378.40156
G1 X107.089 Y47.991 E1381.73013
G1 X107.089 Y50.73 E1381.86678
G1 X109.629 Y53.269 E1382.04596
G1 X109.629 Y86.317 E1383.69473
G1 X107.089 Y88.856 E1383.8739
G1 X107.089 Y100.287 E1384.4442
G1 X105.367 Y102.009 E1384.56569
G1 X40.371 Y102.009 E1387.80836
G1 F2400 E1386.80836
G0 F4200 X107.089 Y100.287
G0 X107.089 Y88.856
G0 X107.207 Y88.74
G0 X107.489 Y89.022
; TYPE:WALL-OUTER
G1 F2400 E1387.80836
G1 F840 X107.489 Y100.453 E1388.37865
G1 X105.533 Y102.409 E1388.51666
G1 X39.971 Y102.409 E1391.78756
G1 X39.971 Y47.591 E1394.52244
G1 X107.489 Y47.591 E1397.89093
G1 X107.489 Y50.564 E1398.03925
G1 X110.029 Y53.103 E1398.21843
G1 X110.029 Y86.483 E1399.88376
G1 X107.489 Y89.022 E1400.06294
G1 F2400 E1399.06294
G0 F4200 X107.207 Y88.74
G0 X109.629 Y86.317
G0 X104.492 Y82.838
; TYPE:WALL-INNER
G1 F2400 E1400.06294
G1 F840 X104.586 Y82.415 E1400.08456
G1 X104.595 Y82.371 E1400.08787
G0 F4200 X104.634 Y82.332
G1 F840 X105.027 Y81.898 E1400.12592
G1 X105.466 Y81.517 E1400.16369
G0 F4200 X105.538 Y81.49
G1 F840 X106.002 Y81.391 E1400.18736
G0 F4200 X105.538 Y81.391
G1 F840 X105.449 Y81.391 E1400.1918
G1 X105.395 Y81.445 E1400.19561
G0 F4200 X104.57 Y82.269
G1 F840 X104.492 Y82.347 E1400.20111
G1 F2400 E1399.20111
G0 F4200 X106.672 Y85.704
; TYPE:WALL-OUTER
G1 F2400 E1400.20111
G1 F840 X107.156 Y85.664 E1400.22534
G1 X107.451 Y85.575 E1400.24072
G1 X107.624 Y85.504 E1400.25005
G1 X107.892 Y85.348 E1400.26552
G1 X108.255 Y85.03 E1400.28959
G1 X108.533 Y84.632 E1400.31381
G1 X108.711 Y84.17 E1400.33852
G1 X108.769 Y83.686 E1400.36283
G1 X108.711 Y83.2 E1400.38725
G1 X108.535 Y82.743 E1400.41169
G1 X108.257 Y82.346 E1400.43587
G1 X108.034 Y82.135 E1400.45118
G1 X107.887 Y82.02 E1400.46049
G1 X107.623 Y81.869 E1400.47567
G1 X107.451 Y81.798 E1400.48495
G1 X107.156 Y81.709 E1400.50032
G1 X106.673 Y81.669 E1400.5245
G1 X106.19 Y81.745 E1400.5489
G1 X105.739 Y81.938 E1400.57337
G1 X105.349 Y82.231 E1400.59771
G1 X105.04 Y82.611 E1400.62214
G1 X104.834 Y83.05 E1400.64633
G1 X104.763 Y83.35 E1400.66172
G1 X104.739 Y83.535 E1400.67102
G1 X104.739 Y83.838 E1400.68614
G1 X104.763 Y84.023 E1400.69545
G1 X104.834 Y84.322 E1400.71078
G1 X105.04 Y84.762 E1400.73502
G1 X105.349 Y85.141 E1400.75941
G1 X105.739 Y85.436 E1400.78381
G1 X106.19 Y85.627 E1400.80824
G1 X106.672 Y85.704 E1400.8326
G1 F2400 E1399.8326
G0 F4200 X53.696 Y53.065
; TYPE:WALL-INNER
G1 F2400 E1400.8326
G1 F840 X53.469 Y53.017 E1400.84417
G0 F4200 X53.451 Y53.004
G1 F840 X53.582 Y53.017 E1400.85281
G0 F4200 X53.469 Y53.065
G1 F840 X53.341 Y53.065 E1400.85919
G0 F4200 X53.387 Y53.004
G1 F840 X52.974 Y52.643 E1400.89183
G1 X52.589 Y52.217 E1400.92599
G1 X52.583 Y52.161 E1400.92945
G1 X52.537 Y51.962 E1400.93964
G0 F4200 X52.537 Y52.061
G1 F840 X52.583 Y52.211 E1400.95013
G1 F2400 E1399.95013
G0 F4200 X53.001 Y52.615
G0 X53.469 Y52.969
G0 X53.696 Y53.065
G0 X54.603 Y52.888
; TYPE:WALL-OUTER
G1 F2400 E1400.95013
G1 F840 X55.087 Y52.848 E1400.97436
G1 X55.382 Y52.759 E1400.98973
G1 X55.555 Y52.688 E1400.99906
G1 X55.823 Y52.532 E1401.01453
G1 X56.186 Y52.214 E1401.03861
G1 X56.464 Y51.816 E1401.06283
G1 X56.642 Y51.354 E1401.08753
G1 X56.7 Y50.87 E1401.11185
G1 X56.642 Y50.385 E1401.13622
G1 X56.466 Y49.928 E1401.16065
G1 X56.186 Y49.527 E1401.18505
G1 X55.823 Y49.209 E1401.20913
G1 X55.555 Y49.053 E1401.2246
G1 X55.382 Y48.982 E1401.23393
G1 X55.087 Y48.893 E1401.2493
G1 X54.603 Y48.853 E1401.27353
G1 X54.121 Y48.93 E1401.29788
G1 X53.67 Y49.121 E1401.32232
G1 X53.28 Y49.416 E1401.34672
G1 X52.971 Y49.795 E1401.37111
G1 X52.765 Y50.235 E1401.39535
G1 X52.694 Y50.534 E1401.41068
G1 X52.67 Y50.719 E1401.41999
G1 X52.67 Y51.022 E1401.43511
G1 X52.694 Y51.207 E1401.44441
G1 X52.765 Y51.506 E1401.45975
G1 X52.971 Y51.946 E1401.48398
G1 X53.28 Y52.325 E1401.50838
G1 X53.67 Y52.62 E1401.53278
G1 X54.121 Y52.811 E1401.55721
G1 X54.603 Y52.888 E1401.58156
G1 F2400 E1400.58156
G0 F4200 X106.469 Y57.968
G1 F2400 E1401.58156
G1 F840 X106.953 Y57.928 E1401.60579
G1 X107.248 Y57.839 E1401.62117
G1 X107.421 Y57.768 E1401.6305
G1 X107.689 Y57.612 E1401.64597
G1 X108.052 Y57.294 E1401.67004
G1 X108.331 Y56.895 E1401.69433
G1 X108.508 Y56.434 E1401.71897
G1 X108.566 Y55.95 E1401.74329
G1 X108.508 Y55.465 E1401.76766
G1 X108.332 Y55.008 E1401.79209
G1 X108.052 Y54.607 E1401.81649
G1 X107.689 Y54.289 E1401.84057
G1 X107.421 Y54.133 E1401.85604
G1 X107.248 Y54.062 E1401.86537
G1 X106.953 Y53.973 E1401.88074
G1 X106.469 Y53.933 E1401.90497
G1 X105.986 Y54.01 E1401.92937
G1 X105.536 Y54.201 E1401.95376
G1 X105.145 Y54.496 E1401.9782
G1 X104.837 Y54.875 E1402.00256
G1 X104.631 Y55.315 E1402.0268
G1 X104.56 Y55.614 E1402.04213
G1 X104.536 Y55.799 E1402.05144
G1 X104.536 Y56.102 E1402.06656
G1 X104.56 Y56.287 E1402.07586
G1 X104.631 Y56.586 E1402.09119
G1 X104.837 Y57.026 E1402.11543
G1 X105.145 Y57.405 E1402.1398
G1 X105.536 Y57.7 E1402.16423
G1 X105.986 Y57.891 E1402.18862
G1 X106.469 Y57.968 E1402.21302
G0 F4200 X106.406 Y58.363
G0 X105.881 Y58.5
; TYPE:FILL
G1 F840 X105.761 Y58.446 E1402.21508
G0 F4200 X105.744 Y58.463
G1 F840 X105.884 Y58.569 E1402.21764
G1 F2400 E1401.21764
G0 F4200 X104.866 Y57.695
G0 X104.496 Y57.24
G0 X104.289 Y56.798
G0 X104.265 Y56.653
G1 F2400 E1402.21764
G1 F840 X104.226 Y56.323 E1402.22788
G1 X104.212 Y56.115 E1402.2343
G1 X104.212 Y55.786 E1402.24443
G1 X104.226 Y55.578 E1402.25156
G1 X104.265 Y55.248 E1402.26291
G1 F2400 E1401.26291
G0 F4200 X104.289 Y55.103
G0 X104.496 Y54.661
G0 X104.866 Y54.206
G0 X105.335 Y53.852
G0 X105.875 Y53.623
G0 X106.454 Y53.53
G0 X107.028 Y53.578
G0 X107.382 Y53.685
G0 X107.598 Y53.773
G0 X107.923 Y53.962
G0 X108.352 Y54.338
G0 X109.261 Y55.32
G1 F2400 E1402.26291
G1 F840 X109.3 Y55.95 E1402.28323
G1 X109.262 Y56.576 E1402.30341
G1 F2400 E1401.30341
G0 F4200 X108.289 Y79.77
G0 X106.783 Y81.276
G0 X106.608 Y81.331
G1 F2400 E1402.30341
G1 F840 X106.135 Y81.371 E1402.32022
G0 F4200 X106.002 Y81.391
G0 X105.538 Y81.589
G0 X105.07 Y81.941
G0 X104.699 Y82.396
G0 X104.492 Y82.838
G0 X104.468 Y82.983
G1 F840 X104.429 Y83.314 E1402.33161
G1 X104.415 Y83.522 E1402.33803
G1 X104.415 Y83.851 E1402.34817
G1 X104.429 Y84.059 E1402.35459
G1 X104.468 Y84.389 E1402.36595
G1 F2400 E1401.36595
G0 F4200 X104.492 Y84.534
G0 X104.699 Y84.977
G0 X105.07 Y85.431
G0 X105.538 Y85.785
G0 X106.079 Y86.014
G0 X106.657 Y86.107
G0 X107.231 Y86.059
G0 X107.585 Y85.952
G0 X107.801 Y85.864
G0 X108.126 Y85.675
G0 X109.245 Y84.922
G1 F2400 E1402.36595
G1 F840 X109.297 Y84.675 E1402.37426
G1 X109.363 Y84.31 E1402.38032
G0 F4200 X109.363 Y83.054
G1 F840 X109.249 Y82.46 E1402.39028
G1 F2400 E1401.39028
G0 F4200 X109.172 Y83.686
G0 X109.102 Y84.269
G0 X108.891 Y84.818
G0 X108.555 Y85.299
G0 X103.209 Y98.129
G0 X58.546 Y98.129
G0 X57.29 Y96.872
G0 X56.806 Y96.872
G0 X56.719 Y96.862
G1 F2400 E1402.39028
G1 F840 X56.394 Y96.813 E1402.40003
G1 X55.866 Y96.791 E1402.41572
G1 X55.336 Y96.834 E1402.43151
G1 F2400 E1401.43151
G0 F4200 X55.115 Y96.872
G0 X54.739 Y97.031
G0 X54.271 Y97.385
G0 X53.9 Y97.839
G0 X53.656 Y98.361
G0 X53.57 Y98.721
G0 X53.54 Y98.952
G0 X53.54 Y99.307
G0 X53.57 Y99.538
G0 X53.656 Y99.898
G0 X53.9 Y100.42
G0 X54.271 Y100.874
G0 X54.739 Y101.228
G0 X55.28 Y101.457
G0 X56.469 Y101.754
G1 F2400 E1402.43151
G1 F840 X56.853 Y101.696 E1402.43683
G0 F4200 X56.971 Y101.696
G1 F840 X56.661 Y101.754 E1402.44966
G0 F4200 X55.28 Y101.457
G0 X44.251 Y98.129
G0 X41.711 Y93.064
G0 X41.711 Y79.795
G0 X41.711 Y60.644
G0 X41.711 Y52.222
G0 X44.602 Y49.331
G0 X54.588 Y48.45
G0 X55.162 Y48.498
G0 X55.516 Y48.605
G0 X55.732 Y48.693
G0 X56.057 Y48.882
G0 X56.486 Y49.258
G0 X56.822 Y49.739
G0 X57.033 Y50.288
G0 X57.103 Y50.87
G0 X57.033 Y51.453
G0 X56.822 Y52.002
G0 X56.486 Y52.483
G0 X56.057 Y52.859
G0 X55.732 Y53.048
G0 X55.69 Y53.065
G0 X55.286 Y53.155
G1 F840 X55.546 Y53.106 E1402.46193
G0 F4200 X55.449 Y53.106
G1 F840 X55.124 Y53.155 E1402.46911
G1 X54.596 Y53.177 E1402.48064
G1 X54.066 Y53.134 E1402.49225
G1 F2400 E1401.49225
G0 F4200 X53.696 Y53.065
G0 X53.469 Y52.969
G0 X53.001 Y52.615
G0 X52.63 Y52.161
G0 X52.537 Y51.962
G0 X52.417 Y51.408
G1 F2400 E1402.49225
G1 F840 X52.403 Y51.139 E1402.50051
G1 X52.403 Y50.87 E1402.5093
G1 X52.417 Y50.602 E1402.51807
G0 F4200 X52.403 Y50.706
G1 F840 X52.417 Y50.498 E1402.52223
G1 X52.456 Y50.168 E1402.52886
G1 F2400 E1401.52886
G0 F4200 X52.537 Y49.779
G0 X52.63 Y49.58
G0 X53.001 Y49.126
G0 X53.469 Y48.772
G0 X54.01 Y48.543
G0 X55.199 Y48.246
G1 F2400 E1402.52886
G1 F840 X55.583 Y48.303 E1402.53976
G1 X55.82 Y48.352 E1402.54655
G0 F4200 X56.25 Y48.33
; TYPE:BOTTOM-FILL
G1 F840 X59.45 Y51.531 E1402.77236
G0 F4200 X58.885 Y51.531
G1 F840 X57.244 Y49.89 E1402.88814
G0 F4200 X57.415 Y50.627
G1 F840 X58.319 Y51.531 E1402.95193
G0 F4200 X57.753 Y51.531
G1 F840 X57.406 Y51.183 E1402.97644
G1 F2400 E1401.97644
G0 F4200 X60.016 Y51.531
G1 F2400 E1402.97644
G1 F840 X56.816 Y48.33 E1403.20226
G0 F4200 X57.381 Y48.33
G1 F840 X60.582 Y51.531 E1403.42811
G0 F4200 X61.147 Y51.531
G1 F840 X57.947 Y48.33 E1403.65392
G0 F4200 X58.513 Y48.33
G1 F840 X61.713 Y51.531 E1403.87973
G0 F4200 X62.279 Y51.531
G1 F840 X59.078 Y48.33 E1404.10558
G0 F4200 X59.644 Y48.33
G1 F840 X62.844 Y51.531 E1404.33139
G0 F4200 X63.41 Y51.531
G1 F840 X60.21 Y48.33 E1404.5572
G0 F4200 X60.775 Y48.33
G1 F840 X63.976 Y51.531 E1404.78305
G0 F4200 X64.541 Y51.531
G1 F840 X61.341 Y48.33 E1405.00886
G0 F4200 X61.907 Y48.33
G1 F840 X65.107 Y51.531 E1405.23468
G0 F4200 X65.673 Y51.531
G1 F840 X62.472 Y48.33 E1405.46052
G0 F4200 X63.038 Y48.33
G1 F840 X66.238 Y51.531 E1405.68634
G0 F4200 X66.804 Y51.531
G1 F840 X63.604 Y48.33 E1405.91215
G0 F4200 X64.169 Y48.33
G1 F840 X67.37 Y51.531 E1406.138
G0 F4200 X67.935 Y51.531
G1 F840 X64.735 Y48.33 E1406.36381
G0 F4200 X65.301 Y48.33
G1 F840 X68.501 Y51.531 E1406.58962
G0 F4200 X69.067 Y51.531
G1 F840 X65.866 Y48.33 E1406.81547
G0 F4200 X66.432 Y48.33
G1 F840 X69.633 Y51.531 E1407.04132
G0 F4200 X70.198 Y51.531
G1 F840 X66.998 Y48.33 E1407.26713
G0 F4200 X67.564 Y48.33
G1 F840 X70.764 Y51.531 E1407.49294
G0 F4200 X71.33 Y51.531
G1 F840 X68.129 Y48.33 E1407.71879
G0 F4200 X68.695 Y48.33
G1 F840 X71.895 Y51.531 E1407.9446
G0 F4200 X72.461 Y51.531
G1 F840 X69.261 Y48.33 E1408.17042
G0 F4200 X69.826 Y48.33
G1 F840 X73.027 Y51.531 E1408.39626
G0 F4200 X73.592 Y51.531
G1 F840 X70.392 Y48.33 E1408.62208
G0 F4200 X70.958 Y48.33
G1 F840 X74.158 Y51.531 E1408.84789
G0 F4200 X74.724 Y51.531
G1 F840 X71.523 Y48.33 E1409.07374
G0 F4200 X72.089 Y48.33
G1 F840 X75.289 Y51.531 E1409.29955
G0 F4200 X75.855 Y51.531
G1 F840 X72.655 Y48.33 E1409.52536
G0 F4200 X73.22 Y48.33
G1 F840 X76.421 Y51.531 E1409.75121
G0 F4200 X76.986 Y51.531
G1 F840 X73.786 Y48.33 E1409.97702
G0 F4200 X74.352 Y48.33
G1 F840 X77.552 Y51.531 E1410.20284
G0 F4200 X78.118 Y51.531
G1 F840 X74.917 Y48.33 E1410.42868
G0 F4200 X75.483 Y48.33
G1 F840 X78.684 Y51.531 E1410.65453
G0 F4200 X79.249 Y51.531
G1 F840 X76.049 Y48.33 E1410.88034
G0 F4200 X76.615 Y48.33
G1 F840 X79.815 Y51.531 E1411.10616
G0 F4200 X80.381 Y51.531
G1 F840 X77.18 Y48.33 E1411.332
G0 F4200 X77.746 Y48.33
G1 F840 X80.946 Y51.531 E1411.55782
G0 F4200 X81.512 Y51.531
G1 F840 X78.312 Y48.33 E1411.78363
G0 F4200 X78.877 Y48.33
G1 F840 X82.078 Y51.531 E1412.00948
G0 F4200 X82.643 Y51.531
G1 F840 X79.443 Y48.33 E1412.23529
G0 F4200 X80.009 Y48.33
G1 F840 X83.209 Y51.531 E1412.4611
G0 F4200 X83.775 Y51.531
G1 F840 X80.574 Y48.33 E1412.68695
G0 F4200 X81.14 Y48.33
G1 F840 X84.34 Y51.531 E1412.91276
G0 F4200 X84.906 Y51.531
G1 F840 X81.706 Y48.331 E1413.13854
G0 F4200 X82.272 Y48.331
G1 F840 X85.472 Y51.531 E1413.36432
G0 F4200 X86.037 Y51.531
G1 F840 X82.838 Y48.331 E1413.59006
G0 F4200 X83.403 Y48.331
G1 F840 X86.603 Y51.531 E1413.81584
G0 F4200 X87.169 Y51.531
G1 F840 X83.969 Y48.331 E1414.04161
G0 F4200 X84.535 Y48.331
G1 F840 X87.734 Y51.531 E1414.26736
G0 F4200 X88.3 Y51.531
G1 F840 X85.101 Y48.331 E1414.4931
G0 F4200 X85.666 Y48.331
G1 F840 X88.866 Y51.531 E1414.71887
G0 F4200 X89.432 Y51.531
G1 F840 X86.232 Y48.331 E1414.94465
G0 F4200 X86.798 Y48.331
G1 F840 X89.997 Y51.531 E1415.17039
G0 F4200 X90.563 Y51.531
G1 F840 X87.363 Y48.331 E1415.39617
G0 F4200 X87.929 Y48.331
G1 F840 X91.129 Y51.531 E1415.62195
G0 F4200 X91.694 Y51.531
G1 F840 X88.495 Y48.331 E1415.84769
G0 F4200 X89.06 Y48.331
G1 F840 X92.26 Y51.531 E1416.07347
G0 F4200 X92.826 Y51.531
G1 F840 X89.626 Y48.331 E1416.29925
G0 F4200 X90.192 Y48.331
G1 F840 X93.391 Y51.531 E1416.52499
G0 F4200 X93.957 Y51.531
G1 F840 X90.757 Y48.331 E1416.75076
G0 F4200 X91.323 Y48.331
G1 F840 X94.523 Y51.531 E1416.97654
G0 F4200 X95.088 Y51.531
G1 F840 X91.889 Y48.331 E1417.20228
G0 F4200 X92.454 Y48.331
G1 F840 X95.654 Y51.531 E1417.42806
G0 F4200 X96.22 Y51.531
G1 F840 X93.02 Y48.331 E1417.65384
G0 F4200 X93.586 Y48.331
G1 F840 X96.785 Y51.531 E1417.87958
G0 F4200 X97.351 Y51.531
G1 F840 X94.151 Y48.331 E1418.10536
G0 F4200 X94.717 Y48.331
G1 F840 X97.917 Y51.531 E1418.33113
G0 F4200 X98.483 Y51.531
G1 F840 X95.283 Y48.331 E1418.55691
G0 F4200 X95.849 Y48.331
G1 F840 X99.048 Y51.531 E1418.78265
G0 F4200 X99.614 Y51.531
G1 F840 X96.414 Y48.331 E1419.00843
G0 F4200 X96.98 Y48.331
G1 F840 X100.18 Y51.531 E1419.23421
G0 F4200 X100.745 Y51.531
G1 F840 X97.546 Y48.331 E1419.45995
G0 F4200 X98.111 Y48.331
G1 F840 X101.311 Y51.531 E1419.68573
G0 F4200 X101.877 Y51.531
G1 F840 X98.677 Y48.331 E1419.91151
G0 F4200 X99.243 Y48.331
G1 F840 X102.442 Y51.531 E1420.13725
G0 F4200 X103.008 Y51.531
G1 F840 X99.808 Y48.331 E1420.36302
G0 F4200 X100.374 Y48.331
G1 F840 X105.468 Y53.425 E1420.72243
G0 F4200 X105.088 Y53.61
G1 F840 X103.548 Y52.071 E1420.83105
G1 F2400 E1419.83105
G0 F4200 X104.628 Y53.716
G1 F2400 E1420.83105
G1 F840 X104.765 Y53.853 E1420.84072
G0 F4200 X105.885 Y53.276
G1 F840 X100.94 Y48.331 E1421.18962
G0 F4200 X101.505 Y48.331
G1 F840 X106.372 Y53.197 E1421.53297
G0 F4200 X106.972 Y53.232
G1 F840 X102.071 Y48.331 E1421.87877
G0 F4200 X102.637 Y48.331
G1 F840 X107.809 Y53.503 E1422.24368
G1 F2400 E1421.24368
G0 F4200 X109.288 Y53.851
G1 F2400 E1422.24368
G1 F840 X103.768 Y48.331 E1422.63314
G0 F4200 X103.202 Y48.331
G1 F840 X109.288 Y54.416 E1423.06251
G0 F4200 X109.007 Y54.701
G1 F840 X109.288 Y54.982 E1423.08234
G1 F2400 E1422.08234
G0 F4200 X109.071 Y57.028
G1 F2400 E1423.08234
G1 F840 X109.288 Y57.245 E1423.09765
G0 F4200 X108.879 Y57.402
G1 F840 X109.288 Y57.81 E1423.12647
G0 F4200 X109.288 Y58.376
G1 F840 X108.646 Y57.734 E1423.17176
G0 F4200 X108.356 Y58.01
G1 F840 X109.288 Y58.942 E1423.23752
G0 F4200 X109.288 Y59.507
G1 F840 X108.042 Y58.262 E1423.3254
G0 F4200 X107.676 Y58.462
G1 F840 X109.288 Y60.073 E1423.4391
G0 F4200 X109.288 Y60.639
G1 F840 X107.257 Y58.608 E1423.5824
G0 F4200 X106.768 Y58.685
G1 F840 X109.288 Y61.205 E1423.7602
G0 F4200 X109.288 Y61.77
G1 F840 X106.19 Y58.672 E1423.97878
G0 F4200 X106.088 Y59.136
G1 F840 X109.288 Y62.336 E1424.20455
G0 F4200 X109.288 Y62.902
G1 F840 X106.088 Y59.702 E1424.43033
G0 F4200 X106.088 Y60.268
G1 F840 X109.288 Y63.467 E1424.65607
G0 F4200 X109.288 Y64.033
G1 F840 X106.088 Y60.833 E1424.88185
G0 F4200 X106.088 Y61.399
G1 F840 X109.288 Y64.599 E1425.10763
G0 F4200 X109.288 Y65.164
G1 F840 X106.088 Y61.965 E1425.33337
G0 F4200 X106.088 Y62.53
G1 F840 X109.288 Y65.73 E1425.55915
G0 F4200 X109.288 Y66.296
G1 F840 X106.088 Y63.096 E1425.78492
G0 F4200 X106.088 Y63.662
G1 F840 X109.288 Y66.861 E1426.01067
G0 F4200 X109.288 Y67.427
G1 F840 X106.088 Y64.227 E1426.23644
G0 F4200 X106.087 Y64.792
G1 F840 X109.288 Y67.993 E1426.46229
G0 F4200 X109.288 Y68.558
G1 F840 X106.087 Y65.358 E1426.6881
G0 F4200 X106.087 Y65.924
G1 F840 X109.288 Y69.124 E1426.91392
G0 F4200 X109.288 Y69.69
G1 F840 X106.087 Y66.489 E1427.13977
G0 F4200 X106.087 Y67.055
G1 F840 X109.288 Y70.256 E1427.36561
G0 F4200 X109.288 Y70.821
G1 F840 X106.087 Y67.621 E1427.59143
G0 F4200 X106.087 Y68.187
G1 F840 X109.288 Y71.387 E1427.81724
G0 F4200 X109.288 Y71.953
G1 F840 X106.087 Y68.752 E1428.04309
G0 F4200 X106.087 Y69.318
G1 F840 X109.288 Y72.518 E1428.2689
G0 F4200 X109.288 Y73.084
G1 F840 X106.087 Y69.884 E1428.49471
G0 F4200 X106.087 Y70.449
G1 F840 X106.346 Y70.707 E1428.51295
G1 F2400 E1427.51295
G0 F4200 X108.627 Y72.989
G1 F2400 E1428.51295
G1 F840 X109.288 Y73.65 E1428.55959
G0 F4200 X109.288 Y74.215
G1 F840 X108.627 Y73.555 E1428.60619
G0 F4200 X108.627 Y74.121
G1 F840 X109.288 Y74.781 E1428.65279
G0 F4200 X109.288 Y75.347
G1 F840 X108.627 Y74.686 E1428.69943
G0 F4200 X108.627 Y75.252
G1 F840 X109.288 Y75.912 E1428.74603
G0 F4200 X109.288 Y76.478
G1 F840 X108.627 Y75.818 E1428.79263
G0 F4200 X108.627 Y76.383
G1 F840 X109.288 Y77.044 E1428.83927
G0 F4200 X109.288 Y77.609
G1 F840 X108.627 Y76.949 E1428.88587
G0 F4200 X108.627 Y77.515
G1 F840 X109.288 Y78.175 E1428.93247
G0 F4200 X109.288 Y78.741
G1 F840 X108.627 Y78.08 E1428.97911
G0 F4200 X108.627 Y78.646
G1 F840 X109.288 Y79.306 E1429.02571
G0 F4200 X109.288 Y79.872
G1 F840 X108.627 Y79.212 E1429.07231
G0 F4200 X108.627 Y79.777
G1 F840 X109.288 Y80.438 E1429.11895
G0 F4200 X109.288 Y81.004
G1 F840 X108.412 Y80.127 E1429.18079
G0 F4200 X108.129 Y80.41
G1 F840 X109.288 Y81.569 E1429.26257
G0 F4200 X109.288 Y82.135
G1 F840 X107.845 Y80.692 E1429.36438
G0 F4200 X107.562 Y80.975
G1 F840 X107.683 Y81.095 E1429.37288
G1 F2400 E1428.37288
G0 F4200 X108.562 Y82.083
G0 X108.891 Y82.554
G0 X109.102 Y83.103
G0 X109.172 Y83.686
G0 X109.006 Y85.247
G1 F2400 E1429.37288
G1 F840 X109.287 Y85.528 E1429.39271
G0 F4200 X108.762 Y85.569
G1 F840 X109.288 Y86.095 E1429.42982
G0 F4200 X109.045 Y86.418
G1 F840 X108.46 Y85.832 E1429.47113
G0 F4200 X108.127 Y86.066
G1 F840 X108.762 Y86.701 E1429.51593
G0 F4200 X108.48 Y86.984
G1 F840 X107.747 Y86.251 E1429.56765
G0 F4200 X107.317 Y86.387
G1 F840 X108.197 Y87.266 E1429.6297
G0 F4200 X107.913 Y87.549
G1 F840 X106.801 Y86.436 E1429.70819
G0 F4200 X106.172 Y86.373
G1 F840 X107.63 Y87.831 E1429.81106
G0 F4200 X107.348 Y88.114
G1 F840 X105.16 Y85.927 E1429.9654
G0 F4200 X104.803 Y86.136
G1 F840 X107.065 Y88.397 E1430.12496
G0 F4200 X106.782 Y88.68
G1 F840 X104.52 Y86.419 E1430.28453
G0 F4200 X104.238 Y86.701
G1 F840 X106.748 Y89.212 E1430.46165
G0 F4200 X106.748 Y89.777
G1 F840 X103.954 Y86.984 E1430.65875
G0 F4200 X103.671 Y87.266
G1 F840 X106.748 Y90.343 E1430.87585
G0 F4200 X106.748 Y90.909
G1 F840 X103.548 Y87.709 E1431.10163
G0 F4200 X103.548 Y88.275
G1 F840 X106.748 Y91.474 E1431.32737
G0 F4200 X106.748 Y92.04
G1 F840 X103.548 Y88.84 E1431.55315
G0 F4200 X103.548 Y89.406
G1 F840 X106.748 Y92.606 E1431.77892
G0 F4200 X106.748 Y93.171
G1 F840 X103.548 Y89.972 E1432.00467
G0 F4200 X103.548 Y90.537
G1 F840 X106.748 Y93.737 E1432.23044
G0 F4200 X106.748 Y94.303
G1 F840 X103.548 Y91.103 E1432.45622
G0 F4200 X103.548 Y91.669
G1 F840 X106.748 Y94.868 E1432.68196
G0 F4200 X106.748 Y95.434
G1 F840 X103.548 Y92.235 E1432.9077
G0 F4200 X103.548 Y92.8
G1 F840 X106.748 Y96 E1433.13348
G0 F4200 X106.748 Y96.566
G1 F840 X103.548 Y93.366 E1433.35926
G0 F4200 X103.548 Y93.932
G1 F840 X106.748 Y97.131 E1433.585
G0 F4200 X106.748 Y97.697
G1 F840 X103.548 Y94.497 E1433.81078
G0 F4200 X103.548 Y95.063
G1 F840 X106.748 Y98.263 E1434.03656
G0 F4200 X106.748 Y98.828
G1 F840 X103.548 Y95.629 E1434.2623
G0 F4200 X103.548 Y96.194
G1 F840 X106.748 Y99.394 E1434.48808
G0 F4200 X106.748 Y99.96
G1 F840 X103.548 Y96.76 E1434.71385
G0 F4200 X103.548 Y97.326
G1 F840 X106.558 Y100.335 E1434.92619
G0 F4200 X106.275 Y100.618
G1 F840 X103.548 Y97.891 E1435.11859
G0 F4200 X103.548 Y98.457
G1 F840 X105.992 Y100.901 E1435.29103
G0 F4200 X105.709 Y101.184
G1 F840 X102.994 Y98.468 E1435.48262
G0 F4200 X102.428 Y98.468
G1 F840 X105.426 Y101.466 E1435.69415
G0 F4200 X105.062 Y101.668
G1 F840 X101.862 Y98.468 E1435.91993
G0 F4200 X101.297 Y98.468
G1 F840 X104.496 Y101.668 E1436.14567
G0 F4200 X103.931 Y101.668
G1 F840 X100.731 Y98.468 E1436.37145
G0 F4200 X100.165 Y98.468
G1 F840 X103.365 Y101.668 E1436.59722
G0 F4200 X102.799 Y101.668
G1 F840 X99.6 Y98.468 E1436.82296
G0 F4200 X99.034 Y98.468
G1 F840 X102.234 Y101.668 E1437.04874
G0 F4200 X101.668 Y101.668
G1 F840 X98.468 Y98.468 E1437.27452
G0 F4200 X97.903 Y98.468
G1 F840 X101.102 Y101.668 E1437.50026
G0 F4200 X100.537 Y101.668
G1 F840 X97.337 Y98.468 E1437.72604
G0 F4200 X96.771 Y98.468
G1 F840 X99.971 Y101.668 E1437.95182
G0 F4200 X99.405 Y101.668
G1 F840 X96.206 Y98.468 E1438.17756
G0 F4200 X95.64 Y98.468
G1 F840 X98.84 Y101.668 E1438.40334
G0 F4200 X98.274 Y101.668
G1 F840 X95.074 Y98.468 E1438.62911
G0 F4200 X94.509 Y98.468
G1 F840 X97.708 Y101.668 E1438.85485
G0 F4200 X97.143 Y101.668
G1 F840 X93.943 Y98.468 E1439.08063
G0 F4200 X93.377 Y98.468
G1 F840 X96.577 Y101.668 E1439.30641
G0 F4200 X96.011 Y101.668
G1 F840 X92.812 Y98.468 E1439.53215
G0 F4200 X92.246 Y98.468
G1 F840 X95.445 Y101.668 E1439.75789
G0 F4200 X94.88 Y101.668
G1 F840 X91.68 Y98.468 E1439.98367
G0 F4200 X91.114 Y98.468
G1 F840 X94.314 Y101.668 E1440.20945
G0 F4200 X93.748 Y101.668
G1 F840 X90.549 Y98.468 E1440.43519
G0 F4200 X89.983 Y98.468
G1 F840 X93.183 Y101.668 E1440.66097
G0 F4200 X92.617 Y101.668
G1 F840 X89.417 Y98.468 E1440.88674
G0 F4200 X88.852 Y98.468
G1 F840 X92.051 Y101.668 E1441.11249
G0 F4200 X91.486 Y101.668
G1 F840 X88.286 Y98.468 E1441.33826
G0 F4200 X87.72 Y98.468
G1 F840 X90.92 Y101.668 E1441.56404
G0 F4200 X90.354 Y101.668
G1 F840 X87.155 Y98.468 E1441.78978
G0 F4200 X86.589 Y98.468
G1 F840 X89.789 Y101.668 E1442.01556
G0 F4200 X89.223 Y101.668
G1 F840 X86.023 Y98.468 E1442.24134
G0 F4200 X85.458 Y98.468
G1 F840 X88.657 Y101.668 E1442.46708
G0 F4200 X88.092 Y101.668
G1 F840 X84.892 Y98.468 E1442.69286
G0 F4200 X84.326 Y98.468
G1 F840 X87.526 Y101.668 E1442.91863
G0 F4200 X86.96 Y101.668
G1 F840 X83.761 Y98.468 E1443.14438
G0 F4200 X83.195 Y98.468
G1 F840 X86.395 Y101.668 E1443.37015
G0 F4200 X85.829 Y101.668
G1 F840 X82.629 Y98.468 E1443.59593
G0 F4200 X82.063 Y98.468
G1 F840 X85.263 Y101.668 E1443.82171
G0 F4200 X84.697 Y101.668
G1 F840 X81.498 Y98.468 E1444.04745
G0 F4200 X80.932 Y98.468
G1 F840 X84.132 Y101.668 E1444.27323
G0 F4200 X83.566 Y101.668
G1 F840 X80.366 Y98.468 E1444.499
G0 F4200 X79.801 Y98.468
G1 F840 X83 Y101.668 E1444.72475
G0 F4200 X82.435 Y101.668
G1 F840 X79.235 Y98.468 E1444.95052
G0 F4200 X78.669 Y98.468
G1 F840 X81.869 Y101.668 E1445.1763
G0 F4200 X81.303 Y101.668
G1 F840 X78.104 Y98.468 E1445.40204
G0 F4200 X77.538 Y98.468
G1 F840 X80.737 Y101.667 E1445.62775
G0 F4200 X80.171 Y101.667
G1 F840 X76.972 Y98.468 E1445.85346
G0 F4200 X76.407 Y98.468
G1 F840 X79.606 Y101.667 E1446.07916
G0 F4200 X79.04 Y101.667
G1 F840 X75.841 Y98.468 E1446.30487
G0 F4200 X75.275 Y98.468
G1 F840 X78.474 Y101.667 E1446.53058
G0 F4200 X77.909 Y101.667
G1 F840 X74.71 Y98.468 E1446.75628
G0 F4200 X74.144 Y98.468
G1 F840 X77.343 Y101.667 E1446.98199
G0 F4200 X76.777 Y101.667
G1 F840 X73.578 Y98.468 E1447.2077
G0 F4200 X73.013 Y98.468
G1 F840 X76.211 Y101.667 E1447.43337
G0 F4200 X75.646 Y101.667
G1 F840 X72.447 Y98.468 E1447.65908
G0 F4200 X71.881 Y98.468
G1 F840 X75.08 Y101.667 E1447.88478
G0 F4200 X74.514 Y101.667
G1 F840 X71.315 Y98.468 E1448.11049
G0 F4200 X70.75 Y98.468
G1 F840 X73.949 Y101.667 E1448.3362
G0 F4200 X73.383 Y101.667
G1 F840 X70.184 Y98.468 E1448.5619
G0 F4200 X69.618 Y98.468
G1 F840 X72.817 Y101.667 E1448.78761
G0 F4200 X72.252 Y101.667
G1 F840 X69.053 Y98.468 E1449.01332
G0 F4200 X68.487 Y98.468
G1 F840 X71.686 Y101.667 E1449.23902
G0 F4200 X71.12 Y101.667
G1 F840 X67.921 Y98.468 E1449.46473
G0 F4200 X67.356 Y98.468
G1 F840 X70.555 Y101.667 E1449.69044
G0 F4200 X69.989 Y101.667
G1 F840 X66.79 Y98.468 E1449.91614
G0 F4200 X66.224 Y98.468
G1 F840 X69.423 Y101.667 E1450.14185
G0 F4200 X68.858 Y101.667
G1 F840 X65.659 Y98.468 E1450.36756
G0 F4200 X65.093 Y98.468
G1 F840 X68.292 Y101.667 E1450.59326
G0 F4200 X67.726 Y101.667
G1 F840 X64.527 Y98.468 E1450.81897
G0 F4200 X63.962 Y98.468
G1 F840 X67.161 Y101.667 E1451.04468
G0 F4200 X66.595 Y101.667
G1 F840 X63.396 Y98.468 E1451.27038
G0 F4200 X62.83 Y98.468
